!!!!SEGMENT: pl-cz--iii-32--007_bolehovsky-josef--missa-ex-d-dona-nobis.krn
!!!cenid: 17xx:841
!!!COM: Bolehovský, Josef
!!!COM-rismID: pe30000404
!!!CDT: 1743-1811
!!!CNT: Czech
!!!OPR: Missa ex D
!!!OTL: Dona nobis
!!!OMV: 007
!!!PDT:
!!!AGN: Sacred; Mass
!!!SMS-siglum: PL-CZ
!!!SMS-shelfmark: III-32
!!!SMS-shelfwork: 001-007 M
!!!SMS-variant:
!!!SMS-altvar:
!!!NIFC-rismSourceID: 300237605
!!!NIFC-rismChildID: 300237605
!!!NIFC-islandoraID: pl-cz:37563
!!!URL-pdf-islandora: https://repozytorium.nifc.pl/islandora/object/pl-cz%3A37563/datastream/PDF/view
!!!URL-scan: https://polish.musicsources.pl/pl/lokalizacje/galeria/rekopisy/6900/1 @EN{Scan on Polish Music Sources Website} @PL{Skany w portalu Dziedzictwo Muzyki Polskiej w otwartym dostępie}
!!!IIIF:
!!!ONB-nifc: UWAGA: części Mszy: Kyrie, Gloria, Credo, Sanctus, Benedictus, Agnus Dei, Dona nobis
!!!AIN: 1 alto 3 empty 2 oboe 1 organ 1 tenor 1 viola 2 violn 1 vox
!!!key:
**kern	**fba	**kern	**dynam	**kern	**dynam	**kern	**dynam	**kern	**text	**kern	**text	**kern	**text	**kern	**text	**dynam	**kern	**kern	**kern	**kern
*part12	*part12	*part11	*part11	*part10	*part10	*part9	*part9	*part8	*part8	*part7	*part7	*part6	*part6	*part5	*part5	*part5	*part4	*part3	*part2	*part1
*staff12	*	*staff11	*	*staff10	*	*staff9	*	*staff8	*staff8	*staff7	*staff7	*staff6	*staff6	*staff5	*staff5	*	*staff4	*staff3	*staff2	*staff1
*Iorgan	*	*Iviola	*	*Ivioln	*	*Ivioln	*	*Iempty	*	*Itenor	*	*Ialto	*	*Ivox	*	*	*Iempty	*Iempty	*Ioboe	*Ioboe
*I"Organo.	*	*I"Alto Viola Obligata	*	*I"Violin Secundo	*	*I"Violino Primo.	*	*I"Baſso.	*	*I"Tenore.	*	*I"Alto.	*	*I"Canto.	*	*	*I"Clarino Secundo in D:	*I"Clarino Primo in D:	*I"Oboe Secundo. obligato !	*I"Oboe Primo obl:
*I'org	*	*I'a-vla	*	*I'vl 2	*	*I'vl 1	*	*I'B	*	*I'T	*	*I'A	*	*I'S	*	*	*I'clno 2	*I'clno 1	*I'ob 2	*I'ob 1
*group5	*	*group4	*	*group4	*	*group4	*	*group3	*	*group3	*	*group3	*	*group3	*	*	*group2	*group2	*group1	*group1
*clefF4	*	*clefC3	*	*clefG2	*	*clefG2	*	*clefF4	*	*clefC4	*	*clefC3	*	*clefC1	*	*	*clefG2	*clefG2	*clefG2	*clefG2
*	*	*	*	*	*	*	*	*	*	*	*	*	*	*	*	*	*ITrd-1c-2	*ITrd-1c-2	*	*
*k[f#c#]	*	*k[f#c#]	*	*k[f#c#]	*	*k[f#c#]	*	*k[f#c#]	*	*k[f#c#]	*	*k[f#c#]	*	*k[f#c#]	*	*	*k[f#c#]	*k[f#c#]	*k[f#c#]	*k[f#c#]
*D:	*	*D:	*	*D:	*	*D:	*	*D:	*	*D:	*	*D:	*	*D:	*	*	*	*	*D:	*D:
*M6/8	*	*M6/8	*	*M6/8	*	*M6/8	*	*M6/8	*	*M6/8	*	*M6/8	*	*M6/8	*	*	*M6/8	*M6/8	*M6/8	*M6/8
=1	=1	=1	=1	=1	=1	=1	=1	=1	=1	=1	=1	=1	=1	=1	=1	=1	=1	=1	=1	=1
*2\right	*	*2\right	*	*2\right	*	*2\right	*	*2\right	*	*2\right	*	*2\right	*	*2\right	*	*	*2\right	*2\right	*2\right	*2\right
!	!	!LO:TX:a:t=P:problem=4\, 8\ caudy zapisane niekonsekwentnie	!	!	!	!	!	!	!	!	!	!	!	!	!	!	!	!	!	!LO:TX:a:t=P:problem=4\right&colon; global
!	!	!	!	!	!	!	!	!	!	!	!	!	!	!	!	!	!	!	!	!LO:TX:b:t=Dona
!	!	!	!	!LO:TX:a:t=P:problem=mixed beam	!	!	!	!	!	!	!	!	!	!	!	!	!	!	!	!LO:TX:a:t=P:f=f&colon;:global:problem
!LO:TX:b:t=Donanobis	!	!LO:TX:b:t=Dona	!	!LO:TX:a:t=Presto	!	!LO:TX:a:t=Presto	!	!	!	!	!	!	!	!	!	!	!LO:TX:a:t=P:problem=w prawie całej partii dopisany ołówkiem wariant in C	!	!LO:TX:b:t=Dona	!LO:TX:a:t=P:p=p&colon;:global:problem
!LO:TX:a:t=Presto	!	!LO:TX:a:t=Presto	!	!LO:TX:b:t=Dona	!	!LO:TX:b:t=Dona nobis	!	!	!	!LO:TX:a:t=P:problem=4\right&colon; global	!	!LO:TX:a:t=P:problem=4\right&colon; global	!	!	!	!	!LO:TX:b:t=Dona	!LO:TX:a:t=Dona	!LO:TX:a:t=Presto	!LO:TX:a:t=Presto
4.d\	.	4.dd\	.	8f#/L	.	8dd\L	.	4.d\	Do-	4.A\	Do-	4.d\	Do-	4.dd\	Do-	.	2.f#/	2.dd\	4.f#/	4.dd\
.	.	.	.	8dd\	.	8ff#\	.	.	.	.	.	.	.	.	.	.	.	.	.	.
.	.	.	.	8dd\J	.	8ff#\J	.	.	.	.	.	.	.	.	.	.	.	.	.	.
!	!	!	!	!	!	!	!	!	!	!	!	!	!	!	!	!	!	!	!LO:TX:a:t=P:problem=4\right&colon; global	!
4.c#\	.	4.cc#\	.	8dd\L	.	8ff#\L	.	4.c#\	-na	4.A\	-na	4.f#\	-na	4.dd\	-na	.	.	.	4.dd\	4.ff#\
.	.	.	.	8dd\	.	8ff#\	.	.	.	.	.	.	.	.	.	.	.	.	.	.
.	.	.	.	8dd\J	.	8ff#\J	.	.	.	.	.	.	.	.	.	.	.	.	.	.
=2	=2	=2	=2	=2	=2	=2	=2	=2	=2	=2	=2	=2	=2	=2	=2	=2	=2	=2	=2	=2
4.B\	.	4.b\	.	8dd\L	.	8ff#\L	.	4.B\	no-	4.A\	no-	4.f#\	no-	4.dd\	no-	.	2.dd\	2.ff#\	4.dd\	4.ff#\
.	.	.	.	8ff#\	.	8aa\	.	.	.	.	.	.	.	.	.	.	.	.	.	.
.	.	.	.	8ff#\J	.	8aa\J	.	.	.	.	.	.	.	.	.	.	.	.	.	.
4.F#\	6	4.f#\	.	8ff#\L	.	8aa\L	.	4.F#\	-bis	4.A\	-bis	4.a\	-bis	4.dd\	-bis	.	.	.	4.ff#\	4.aa\
.	.	.	.	8ff#\	.	8aa\	.	.	.	.	.	.	.	.	.	.	.	.	.	.
.	.	.	.	8ff#\J	.	8aa\J	.	.	.	.	.	.	.	.	.	.	.	.	.	.
!	!	!	!	!	!	!	!	!	!	!	!	!	!	!LO:LB:g=original	!	!	!	!	!	!
=3	=3	=3	=3	=3	=3	=3	=3	=3	=3	=3	=3	=3	=3	=3	=3	=3	=3	=3	=3	=3
4.G\	3	4.g\	.	8ff#\L	.	8aa\L	.	4.G\	pa-	4.A\	pa-	4.a\	pa-	4.dd\	Pa-	.	2.dd\	2.ff#\	4.ff#\	4.aa\
.	.	.	.	8ff#\	.	8ddd\	.	.	.	.	.	.	.	.	.	.	.	.	.	.
.	.	.	.	8ff#\J	.	8ddd\J	.	.	.	.	.	.	.	.	.	.	.	.	.	.
4.G#X\	7 5	4.g#X\	.	8ff#\L	.	4.ddd\	.	4.G#X\	.	4.B\	.	4.dd\	.	4.ff#\	.	.	.	.	4.ff#\	4.ddd\
.	.	.	.	8ff#\	.	.	.	.	.	.	.	.	.	.	.	.	.	.	.	.
.	.	.	.	8ff#\J	.	.	.	.	.	.	.	.	.	.	.	.	.	.	.	.
=4	=4	=4	=4	=4	=4	=4	=4	=4	=4	=4	=4	=4	=4	=4	=4	=4	=4	=4	=4	=4
4.A\	5 3	4.a\	.	4.ee\	.	4.ccc#\	.	4.A\	-cem	4.A\	-cem	4.cc#\	-cem	4.ee\	-cem	.	4.a/	4.ee\	4.ee\	4.ccc#\
!	!	!	!	!	!	!	!	!	!	!	!	!	!	!	!	!	!	!LO:TX:a:t=P:problem=uszkodzony papier	!	!
4r	.	4r	.	4r	.	4r	.	4r	.	4r	.	4r	.	4r	.	.	4.r	4ryy	4r	4r
8r	.	8r	.	8r	.	8r	.	8r	.	8r	.	8r	.	8r	.	.	.	8ryy	8r	8r
!	!	!	!	!	!	!	!	!	!	!	!	!	!	!	!	!	!	!LO:LB:g=original	!	!
=5	=5	=5	=5	=5	=5	=5	=5	=5	=5	=5	=5	=5	=5	=5	=5	=5	=5	=5	=5	=5
!	!	!	!	!	!	!	!	!	!	!	!	!	!	!LO:TX:a:t=P:problem=klamra kwadratowa nad "2."	!	!	!LO:TX:a:t=P:problem=wszystkie adnotacje o ilości taktów pauzy są napisane ołówkiem	!LO:N:vis=0	!LO:N:vis=0	!LO:N:vis=0
!LO:TX:a:t=2	!	!	!	!	!LO:DY:a:t=p&colon;	!	!LO:DY:a:t=p&colon;	!	!	!LO:TX:a:t=2	!	!LO:TX:a:t=2	!	!LO:TX:a:t=2.	!	!	!LO:N:vis=0	!LO:TX:a:t=2	!LO:TX:a:t=2	!LO:TX:a:t=2
!LO:N:vis=0	!	!LO:N:vis=0	!	!	!	!	!	!LO:N:vis=0	!	!LO:N:vis=0	!	!LO:N:vis=0	!	!LO:N:vis=0	!	!	!	!	!	!
1.r	.	1.r	.	8gg'\L	p	8bb'\L	p	1.r	.	1.r	.	1.r	.	1.r	.	.	1.r	1.r	1.r	1.r
.	.	.	.	8ff#'\	.	8aa'\	.	.	.	.	.	.	.	.	.	.	.	.	.	.
.	.	.	.	8ee'\J	.	8gg'\J	.	.	.	.	.	.	.	.	.	.	.	.	.	.
.	.	.	.	8dd'\L	.	8ff#'\L	.	.	.	.	.	.	.	.	.	.	.	.	.	.
.	.	.	.	8cc#'\	.	8ee'\	.	.	.	.	.	.	.	.	.	.	.	.	.	.
.	.	.	.	8b'\J	.	8dd'\J	.	.	.	.	.	.	.	.	.	.	.	.	.	.
=6	=6	=6	=6	=6	=6	=6	=6	=6	=6	=6	=6	=6	=6	=6	=6	=6	=6	=6	=6	=6
.	.	.	.	8a'/L	.	8cc#'\L	.	.	.	.	.	.	.	.	.	.	.	.	.	.
.	.	.	.	8g'/	.	8b'\	.	.	.	.	.	.	.	.	.	.	.	.	.	.
.	.	.	.	8f#'/J	.	8a'\J	.	.	.	.	.	.	.	.	.	.	.	.	.	.
.	.	.	.	8e'/L	.	8g'/L	.	.	.	.	.	.	.	.	.	.	.	.	.	.
.	.	.	.	8d'/	.	8f#'/	.	.	.	.	.	.	.	.	.	.	.	.	.	.
.	.	.	.	8c#'/J	.	8e'/J	.	.	.	.	.	.	.	.	.	.	.	.	.	.
=7	=7	=7	=7	=7	=7	=7	=7	=7	=7	=7	=7	=7	=7	=7	=7	=7	=7	=7	=7	=7
!	!	!	!	!	!LO:DY:a:t=f&colon;	!LO:TX:a:t=P:problem=mixed beam	!LO:DY:a:t=f&colon;	!	!	!	!	!	!	!	!	!	!	!	!	!
4D\	.	4d\	.	8d/L	f	8f#/L	f	4D\	pa-	2.A\	pa-	4.f#\	pa-	(4.dd\	Pa-	.	4.dd\	4.ff#\	4.dd\	4.ff#\
.	.	.	.	8f#/	.	8dd\	.	.	.	.	.	.	.	.	.	.	.	.	.	.
8F#\	6	8f#\	.	8f#/J	.	8dd\J	.	8F#\	.	.	.	.	.	.	.	.	.	.	.	.
!	!	!	!	!	!	!LO:TX:a:t=P:problem=mixed beam	!	!	!	!	!	!	!	!	!	!	!LO:TX:a:t=P:problem=nieczytelne (uszkodzony papier)	!	!	!
4G\	6 5	4g\	.	8e/L	.	8e/L	.	4G\	.	.	.	4.e\	.	4.cc#\)	.	.	4.a/	4.ee\	4.cc#\	4.ee\
.	.	.	.	8e/	.	8cc#\	.	.	.	.	.	.	.	.	.	.	.	.	.	.
8A\	.	8a\	.	8e/J	.	8cc#\J	.	8A\	.	.	.	.	.	.	.	.	.	.	.	.
!	!	!	!	!	!	!LO:LB:g=original	!	!	!	!	!	!	!	!	!	!	!LO:LB:g=original	!	!	!
=8	=8	=8	=8	=8	=8	=8	=8	=8	=8	=8	=8	=8	=8	=8	=8	=8	=8	=8	=8	=8
!	!	!LO:SIC:s=4.b:v	!	!	!	!	!	!	!	!	!	!LO:N:vis=4	!	!	!	!	!	!	!	!
4.B\	3	4.g\	.	4.f#/	.	4.d/	.	4.B\	-cem	4.B\	-cem	4.f#\	-cem	4.dd\	-cem(m)	.	4.dd\	4.ff#\	4.dd\	4.ff#\
!	!	!	!	!	!	!	!	!	!	!	!	!	!	!	!	!	!	!	!LO:TX:a:t=P:problem=8\right&colon; global	!LO:TX:a:t=P:problem=8\right&colon; global
4r	.	4r	.	4r	.	4r	.	4r	.	4r	.	4r	.	4r	.	.	4.r	4r	8dd\L	8ff#\L
.	.	.	.	.	.	.	.	.	.	.	.	.	.	.	.	.	.	.	8ee\	8gg\
8r	.	8r	.	8r	.	8r	.	8r	.	8r	.	8r	.	8r	.	.	.	8ryy	8ff#\J	8aa\J
=9	=9	=9	=9	=9	=9	=9	=9	=9	=9	=9	=9	=9	=9	=9	=9	=9	=9	=9	=9	=9
!	!	!	!	!	!	!	!	!	!	!	!	!	!	!LO:TX:a:t=P:problem=klamra kwadratowa nad "2."	!	!	!	!	!	!
!LO:TX:a:t=2	!	!	!	!	!LO:DY:a:t=p&colon;	!	!LO:DY:a:t=p&colon;	!	!	!LO:TX:a:t=2	!	!LO:TX:a:t=2	!	!LO:TX:a:t=2.	!	!	!LO:N:vis=0	!LO:N:vis=0	!	!
!LO:N:vis=0	!	!LO:N:vis=0	!	!	!	!	!	!LO:N:vis=0	!	!LO:N:vis=0	!	!LO:N:vis=0	!	!LO:N:vis=0	!	!	!	!	!	!
1.r	.	1.r	.	8gg'\L	p	8bb'\L	p	1.r	.	1.r	.	1.r	.	1.r	.	.	1.r	1.r	4.ee\	4.gg\
.	.	.	.	8ff#'\	.	8aa'\	.	.	.	.	.	.	.	.	.	.	.	.	.	.
.	.	.	.	8ee'\J	.	8gg'\J	.	.	.	.	.	.	.	.	.	.	.	.	.	.
.	.	.	.	8dd'\L	.	8ff#'\L	.	.	.	.	.	.	.	.	.	.	.	.	4r	4r
.	.	.	.	8cc#'\	.	8ee'\	.	.	.	.	.	.	.	.	.	.	.	.	.	.
.	.	.	.	8b'\J	.	8dd'\J	.	.	.	.	.	.	.	.	.	.	.	.	8r	8r
!	!	!	!	!LO:LB:g=original	!	!	!	!	!	!	!	!	!	!	!	!	!	!	!	!
=10	=10	=10	=10	=10	=10	=10	=10	=10	=10	=10	=10	=10	=10	=10	=10	=10	=10	=10	=10	=10
!	!	!	!	!	!	!	!	!	!	!	!	!	!	!	!	!	!	!	!LO:TX:a:t=1	!
.	.	.	.	8a'/L	.	8cc#'\L	.	.	.	.	.	.	.	.	.	.	.	.	2.r	2.r
.	.	.	.	8g'/	.	8b'\	.	.	.	.	.	.	.	.	.	.	.	.	.	.
.	.	.	.	8f#'/J	.	8a'\J	.	.	.	.	.	.	.	.	.	.	.	.	.	.
.	.	.	.	8e'/L	.	8g'/L	.	.	.	.	.	.	.	.	.	.	.	.	.	.
.	.	.	.	8d'/	.	8f#'/	.	.	.	.	.	.	.	.	.	.	.	.	.	.
.	.	.	.	8c#'/J	.	8e'/J	.	.	.	.	.	.	.	.	.	.	.	.	.	.
!	!	!	!	!	!	!	!	!LO:LB:g=original	!	!	!	!	!	!	!	!	!	!	!	!
=11	=11	=11	=11	=11	=11	=11	=11	=11	=11	=11	=11	=11	=11	=11	=11	=11	=11	=11	=11	=11
!	!	!	!	!	!LO:DY:a:t=f&colon;	!LO:TX:a:t=P:problem=mixed beam	!LO:DY:a:t=f&colon;	!	!	!	!	!	!	!	!	!	!	!	!	!
*	*	*	*	*	*	*	*	*	*ij	*	*ij	*	*	*	*ij	*	*	*	*	*
4D\	.	4d\	.	8d/L	f	8f#/L	f	4D\	pa-	2.A\	pa-	4.f#\	pa-	(4.dd\	Pa-	.	4.dd\	4.ff#\	4f#/	4.dd\
.	.	.	.	8f#/	.	8dd\	.	.	.	.	.	.	.	.	.	.	.	.	.	.
8F#\	6	8f#\	.	8f#/J	.	8dd\J	.	8F#\	.	.	.	.	.	.	.	.	.	.	8f#/	.
!	!	!	!	!	!	!LO:TX:a:t=P:problem=mixed beam	!	!	!	!	!	!	!	!	!	!	!	!	!	!
4G\	6 5	4g\	.	8e/L	.	8e/L	.	4G\	.	.	.	4.e\	.	4.cc#\)	.	.	4.a/	4.ee\	4.e/	4.cc#\
.	.	.	.	8e/	.	8cc#\	.	.	.	.	.	.	.	.	.	.	.	.	.	.
8A\	.	8a\	.	8e/J	.	8cc#\J	.	8A\	.	.	.	.	.	.	.	.	.	.	.	.
!LO:LB:g=original	!	!LO:LB:g=original	!	!	!	!	!	!	!	!	!	!LO:LB:g=original	!	!	!	!	!	!	!	!
=12	=12	=12	=12	=12	=12	=12	=12	=12	=12	=12	=12	=12	=12	=12	=12	=12	=12	=12	=12	=12
8d\L	.	8dd\L	.	8f#/L	.	8dd\L	.	4.D\	-cem	4.A\	-cem	4.f#\	-cem	4.dd\	-ce(m)	.	4.dd\	4.ff#\	4.f#/	4.dd\
*	*	*	*	*	*	*	*	*	*Xij	*	*Xij	*	*	*	*Xij	*	*	*	*	*
8A\	.	8a\	.	8a/	.	8a\	.	.	.	.	.	.	.	.	.	.	.	.	.	.
8F#\J	.	8f#\J	.	8f#/J	.	8f#\J	.	.	.	.	.	.	.	.	.	.	.	.	.	.
4.D\	.	4d\	.	4d/	.	4d/	.	4r	.	4r	.	4r	.	4r	.	.	4.r	4r	4r	4r
.	.	8r	.	8r	.	8r	.	8r	.	8r	.	8r	.	8r	.	.	.	8ryy	8r	8r
!	!	!	!	!	!	!	!	!	!	!	!	!	!	!	!	!	!	!	!	!LO:LB:g=original
=13	=13	=13	=13	=13	=13	=13	=13	=13	=13	=13	=13	=13	=13	=13	=13	=13	=13	=13	=13	=13
!	!	!	!	!	!	!	!	!	!	!	!	!	!	!LO:TX:a:t=P:problem=klamra łukowa nad "1."	!	!	!	!	!	!
!LO:TX:a:t=1	!	!	!	!	!	!	!	!	!	!LO:TX:a:t=1	!	!LO:TX:a:t=1	!	!LO:TX:a:t=1.	!	!	!	!	!	!
2.r	.	2.r	.	8ff#\L	.	8ff#\L	.	2.r	.	2.r	.	2.r	.	2.r	.	.	2.r	2.r	2.dd\	2.ff#\
.	.	.	.	8dd\	.	8dd\	.	.	.	.	.	.	.	.	.	.	.	.	.	.
.	.	.	.	8ff#\J	.	8ff#\J	.	.	.	.	.	.	.	.	.	.	.	.	.	.
.	.	.	.	8aa\L	.	8aa\L	.	.	.	.	.	.	.	.	.	.	.	.	.	.
.	.	.	.	8ff#\	.	8ff#\	.	.	.	.	.	.	.	.	.	.	.	.	.	.
.	.	.	.	8aa\J	.	8aa\J	.	.	.	.	.	.	.	.	.	.	.	.	.	.
!	!	!	!	!	!	!	!	!	!	!LO:LB:g=original	!	!	!	!	!	!	!	!	!	!
=14	=14	=14	=14	=14	=14	=14	=14	=14	=14	=14	=14	=14	=14	=14	=14	=14	=14	=14	=14	=14
!	!	!	!	!	!	!	!	!	!	!	!	!	!	!	!	!	!LO:N:vis=4	!LO:TX:a:t=P:problem=brak taktu nr 14	!	!
4r	.	4r	.	8ddd\L	.	8ddd\L	.	4r	.	4r	.	4r	.	4r	.	.	4.r	2.ryy	2.dd\	2.ff#\
.	.	.	.	8aa\	.	8aa\	.	.	.	.	.	.	.	.	.	.	.	.	.	.
8r	.	8r	.	8ff#\J	.	8ff#\J	.	8r	.	8r	.	8r	.	8r	.	.	.	.	.	.
!	!	!	!	!	!	!	!	!	!	!	!	!	!	!	!	!	!LO:N:vis=4	!	!	!
4.d\	.	4.a\	.	8aa\L	.	8aa\L	.	4.d\	pa-	4.d\	pa-	4.a\	pa-	4.ff#\	Pa-	.	4.dd\	.	.	.
.	.	.	.	8ff#\	.	8ff#\	.	.	.	.	.	.	.	.	.	.	.	.	.	.
.	.	.	.	8dd\J	.	8dd\J	.	.	.	.	.	.	.	.	.	.	.	.	.	.
=15	=15	=15	=15	=15	=15	=15	=15	=15	=15	=15	=15	=15	=15	=15	=15	=15	=15	=15	=15	=15
4.c#\	.	4.a\	.	8ee\L	.	8ee\L	.	4.c#\	-cem	4.c#\	-cem	4.a\	-cem	4.ee\	-cem	.	4.a/	4.ee\	2.cc#\	2.ee\
.	.	.	.	8cc#\	.	8cc#\	.	.	.	.	.	.	.	.	.	.	.	.	.	.
.	.	.	.	8ee\J	.	8ee\J	.	.	.	.	.	.	.	.	.	.	.	.	.	.
4r	.	4r	.	8aa\L	.	8aa\L	.	4r	.	4r	.	4r	.	4r	.	.	4r	4.r	.	.
!	!	!	!	!LO:TX:a:t=e	!	!	!	!	!	!	!	!	!	!	!	!	!	!	!	!
.	.	.	.	8ee\	.	8ee\	.	.	.	.	.	.	.	.	.	.	.	.	.	.
8r	.	8r	.	8aa\J	.	8aa\J	.	8r	.	8r	.	8r	.	8r	.	.	8ryy	.	.	.
=16	=16	=16	=16	=16	=16	=16	=16	=16	=16	=16	=16	=16	=16	=16	=16	=16	=16	=16	=16	=16
!	!	!	!	!	!	!	!	!	!	!	!	!	!	!	!	!	!LO:N:vis=0	!LO:N:vis=0	!	!
4r	.	4r	.	8ccc#\L	.	8ccc#\L	.	4r	.	4r	.	4r	.	4r	.	.	1.r	1.r	2.cc#\	2.ee\
.	.	.	.	8aa\	.	8aa\	.	.	.	.	.	.	.	.	.	.	.	.	.	.
!	!	!	!	!LO:TX:a:t=e	!	!	!	!	!	!	!	!	!	!	!	!	!	!	!	!
8r	.	8r	.	8ee\J	.	8ee\J	.	8r	.	8r	.	8r	.	8r	.	.	.	.	.	.
!	!	!	!	!	!	!LO:LB:g=original	!	!	!	!	!	!	!	!	!	!	!	!	!	!
*	*	*	*	*	*	*	*	*	*ij	*	*ij	*	*ij	*	*ij	*	*	*	*	*
4.c#\	.	4.a\	.	8aa\L	.	8aa\L	.	4.c#\	pa-	4.c#\	pa-	4.a\	pa-	4.ee\	Pa-	.	.	.	.	.
.	.	.	.	8ee\	.	8ee\	.	.	.	.	.	.	.	.	.	.	.	.	.	.
.	.	.	.	8cc#\J	.	8cc#\J	.	.	.	.	.	.	.	.	.	.	.	.	.	.
=17	=17	=17	=17	=17	=17	=17	=17	=17	=17	=17	=17	=17	=17	=17	=17	=17	=17	=17	=17	=17
!	!	!LO:N:vis=4	!	!	!	!	!	!	!	!	!	!	!	!	!	!	!	!	!	!
4.B\	7	4.b\	.	8dd\L	.	8dd\L	.	4.B\	-cem	4.e\	-cem	4.g#X\	-cem	4.dd\	-cem	.	.	.	2.b\	2.dd\
*	*	*	*	*	*	*	*	*	*Xij	*	*Xij	*	*Xij	*	*Xij	*	*	*	*	*
.	.	.	.	8b\	.	8b\	.	.	.	.	.	.	.	.	.	.	.	.	.	.
.	.	.	.	8dd\J	.	8dd\J	.	.	.	.	.	.	.	.	.	.	.	.	.	.
4r	.	4r	.	8gg#X\L	.	8gg#X\L	.	4r	.	4r	.	4r	.	4r	.	.	.	.	.	.
.	.	.	.	8dd\	.	8dd\	.	.	.	.	.	.	.	.	.	.	.	.	.	.
8r	.	8r	.	8gg#\J	.	8gg#\J	.	8r	.	8r	.	8r	.	8r	.	.	.	.	.	.
!	!	!	!	!	!	!	!	!	!	!	!	!	!	!LO:LB:g=original	!	!	!	!	!	!
=18	=18	=18	=18	=18	=18	=18	=18	=18	=18	=18	=18	=18	=18	=18	=18	=18	=18	=18	=18	=18
4r	.	4r	.	8bb\L	.	8bb\L	.	4r	.	4r	.	4r	.	4r	.	.	4.r	4r	2.b\	2.dd\
!	!	!	!	!LO:SIC:s=8gg#:v	!	!LO:SIC:s=8gg#:v	!	!	!	!	!	!	!	!	!	!	!	!	!	!
.	.	.	.	8gg\	.	8gg\	.	.	.	.	.	.	.	.	.	.	.	.	.	.
8r	.	8r	.	8dd\J	.	8dd\J	.	8r	.	8r	.	8r	.	8r	.	.	.	8ryy	.	.
!	!	!	!	!LO:SIC:s=8gg#:v	!	!LO:SIC:s=8gg#:v	!	!	!	!	!	!	!	!	!	!	!LO:SIC:s=4.a:v	!	!	!
4.E\	7 #	4.e\	.	8gg\L	.	8gg\L	.	4.E\	da	4.e\	Da	4.b\	Da	4.dd\	Da	.	4.a/	4.ee\	.	.
.	.	.	.	8dd\	.	8dd\	.	.	.	.	.	.	.	.	.	.	.	.	.	.
.	.	.	.	8b\J	.	8b\J	.	.	.	.	.	.	.	.	.	.	.	.	.	.
=19	=19	=19	=19	=19	=19	=19	=19	=19	=19	=19	=19	=19	=19	=19	=19	=19	=19	=19	=19	=19
!	!	!	!	!	!	!	!	!LO:TX:a:t=P:problem=2\right&colon; global	!	!	!	!LO:TX:a:t=P:problem=8\right&colon; global	!	!	!	!	!	!	!	!
2.A\	.	2.a\	.	8cc#\L	.	8cc#\L	.	2.A\	pa-	2.e\	pa-	8a\L	pa-	8cc#\L	Pa-	.	4.ee\	4.ee\	4.a/	4.cc#\
.	.	.	.	8aa\	.	8aa\	.	.	.	.	.	8b\	.	8dd\	.	.	.	.	.	.
.	.	.	.	8ee\J	.	8ee\J	.	.	.	.	.	8cc#\J	.	8ee\J	.	.	.	.	.	.
.	.	.	.	8ee\L	.	8ee\L	.	.	.	.	.	8a\L	.	8cc#\L	.	.	4r	4r	4r	4r
.	.	.	.	8ee\	.	8ee\	.	.	.	.	.	8b\	.	8dd\	.	.	.	.	.	.
.	.	.	.	8ee\J	.	8ee\J	.	.	.	.	.	8cc#\J	.	8ee\J	.	.	8ryy	8ryy	8r	8r
!	!	!	!	!LO:LB:g=original	!	!	!	!	!	!	!	!	!	!	!	!	!	!	!LO:LB:g=original	!
=20	=20	=20	=20	=20	=20	=20	=20	=20	=20	=20	=20	=20	=20	=20	=20	=20	=20	=20	=20	=20
!	!	!	!	!	!	!	!	!	!	!	!	!	!	!	!	!	!	!	!LO:TX:a:t=P:problem=brak taktów 20-24 (uszkodzony papier)	!LO:TX:a:t=5
.	.	.	.	.	.	.	.	.	.	.	.	.	.	8qqee/	.	.	.	.	.	.
!	!	!	!	!	!	!	!	!	!	!	!	!	!	!	!	!	!	!	!LO:N:vis=00	!LO:N:vis=00
8E\L	7_ #_	8g#X\L	.	8dd\L	.	8ee\L	.	8E\L	.	8G#X/L	.	2.b\	.	2.dd\	.	.	4.ee\	4.ee\	0.ryy	0.r
8F#\	.	8a\	.	8dd\	.	8ee\	.	8F#\	.	8A/	.	.	.	.	.	.	.	.	.	.
8G#X\J	.	8b\J	.	8dd\J	.	8ee\J	.	8G#X\J	.	8B/J	.	.	.	.	.	.	.	.	.	.
!	!	!	!	!	!	!	!	!LO:LB:g=original	!	!	!	!	!	!	!	!	!LO:N:vis=4	!	!	!
8E\L	.	8e\L	.	8dd\L	.	8ee\L	.	8E\L	.	8G#/L	.	.	.	.	.	.	4.ee\	4.ee\	.	.
8F#\	.	8f#\	.	8dd\	.	8ee\	.	8F#\	.	8A/	.	.	.	.	.	.	.	.	.	.
8G#\J	.	8g#X\J	.	8dd\J	.	8ee\J	.	8G#\J	.	8B/J	.	.	.	.	.	.	.	.	.	.
=21	=21	=21	=21	=21	=21	=21	=21	=21	=21	=21	=21	=21	=21	=21	=21	=21	=21	=21	=21	=21
!	!	!	!	!	!	!	!	!	!	!	!	!	!	!	!	!	!LO:N:vis=4	!	!	!
2.A\	x	2.a\	.	8cc#\L	.	8ee\L	.	2.A\	.	2.e\	.	8a\L	.	8cc#\L	.	.	4.ee\	4.ee\	.	.
.	.	.	.	8aa\	.	8aa\	.	.	.	.	.	8b\	.	8dd\	.	.	.	.	.	.
.	.	.	.	8ee\J	.	8ee\J	.	.	.	.	.	8cc#\J	.	8ee\J	.	.	.	.	.	.
*	*	*	*	*tremolo	*	*	*	*	*	*	*	*	*	*	*	*	*	*	*	*
*	*	*	*	*tremolo	*	*	*	*	*	*	*	*	*	*	*	*	*	*	*	*
.	.	.	.	8ee\L	.	8ee\L	.	.	.	.	.	8a\L	.	8cc#\L	.	.	4.r	4.r	.	.
.	.	.	.	8ee\	.	8ee\	.	.	.	.	.	8b\	.	8dd\	.	.	.	.	.	.
.	.	.	.	8ee\J	.	8ee\J	.	.	.	.	.	8cc#\J	.	8ee\J	.	.	.	.	.	.
!	!	!LO:LB:g=original	!	!	!	!	!	!	!	!	!	!LO:LB:g=original	!	!	!	!	!	!	!	!
=22	=22	=22	=22	=22	=22	=22	=22	=22	=22	=22	=22	=22	=22	=22	=22	=22	=22	=22	=22	=22
.	.	.	.	.	.	.	.	.	.	.	.	.	.	8qqee/	.	.	.	.	.	.
8E\L	7_ #_	8g#X\L	.	8dd\L	.	8ee\L	.	8E\L	.	8G#X/L	.	2.b\	.	2.dd\	.	.	4.ee\	4.ee\	.	.
8F#\	.	8a\	.	8dd\	.	8ee\	.	8F#\	.	8A/	.	.	.	.	.	.	.	.	.	.
8G#X\J	.	8b\J	.	8dd\J	.	8ee\J	.	8G#X\J	.	8B/J	.	.	.	.	.	.	.	.	.	.
8E\L	.	8e\L	.	8dd\L	.	8ee\L	.	8E\L	.	8G#/L	.	.	.	.	.	.	4.ee\	4.ee\	.	.
8F#\	.	8f#\	.	8dd\	.	8ee\	.	8F#\	.	8A/	.	.	.	.	.	.	.	.	.	.
8G#\J	.	8g#\J	.	8dd\J	.	8ee\J	.	8G#\J	.	8B/J	.	.	.	.	.	.	.	.	.	.
!LO:LB:g=original	!	!	!	!	!	!	!	!	!	!	!	!	!	!	!	!	!	!	!	!
=23	=23	=23	=23	=23	=23	=23	=23	=23	=23	=23	=23	=23	=23	=23	=23	=23	=23	=23	=23	=23
!	!	!	!	!LO:TX:a:t=P:problem=6 kresek artykulacyjnych	!	!	!	!	!	!	!	!	!	!	!	!	!	!	!	!
!	!	!	!	!LO:TX:a:t=P:problem=2\right&colon; global	!	!	!	!	!	!	!	!	!	!	!	!	!	!	!	!
4.A\	5 3	4.a\	.	8cc#\L	.	8cc#\L	.	4.A\	-cem	4.c#\	-cem	4.a\	-cem	4.cc#\	-cem	.	4.a/	4.ee\	.	.
.	.	.	.	8cc#\	.	8aa\	.	.	.	.	.	.	.	.	.	.	.	.	.	.
.	.	.	.	8cc#\	.	8aa\J	.	.	.	.	.	.	.	.	.	.	.	.	.	.
4.F#\	.	4.f#\	.	8cc#\	.	8aa\L	.	4.F#\	da	4.f#\	Da	4.a\	da	4.cc#\	Da	.	4.dd\	4.ff#\	.	.
.	.	.	.	8cc#\	.	8aa\	.	.	.	.	.	.	.	.	.	.	.	.	.	.
.	.	.	.	8cc#\J	.	8aa\J	.	.	.	.	.	.	.	.	.	.	.	.	.	.
=24	=24	=24	=24	=24	=24	=24	=24	=24	=24	=24	=24	=24	=24	=24	=24	=24	=24	=24	=24	=24
4.D\	6 5	4.d\	.	8b\L	.	8aa\L	.	4.D\	pa-	4.f#\	pa-	4.a\	pa-	2.b\	Pa-	.	4.dd\	4.ff#\	2.ryy	2.r
.	.	.	.	8b\	.	8aa\	.	.	.	.	.	.	.	.	.	.	.	.	.	.
.	.	.	.	8b\	.	8aa\J	.	.	.	.	.	.	.	.	.	.	.	.	.	.
4.E\	#	4.e\	.	8b\	.	8gg#X\L	.	4.E\	.	4.e\	.	4.g#X\	.	.	.	.	4.ee\	4.ee\	.	.
.	.	.	.	8b\	.	8gg#\	.	.	.	.	.	.	.	.	.	.	.	.	.	.
.	.	.	.	8b\J	.	8gg#\J	.	.	.	.	.	.	.	.	.	.	.	.	.	.
!	!	!	!	!	!	!LO:LB:g=original	!	!	!	!LO:LB:g=original	!	!	!	!	!	!	!	!	!	!
*	*	*	*	*Xtremolo	*	*	*	*	*	*	*	*	*	*	*	*	*	*	*	*
=25	=25	=25	=25	=25	=25	=25	=25	=25	=25	=25	=25	=25	=25	=25	=25	=25	=25	=25	=25	=25
!	!	!	!	!	!	!	!	!	!	!	!	!	!	!	!	!	!	!	!LO:TX:a:t=P:problem=takty 25-26 ujęte w repetycję	!
!	!	!	!	!	!	!	!	!	!	!	!	!LO:N:vis=4	!	!	!	!	!LO:N:vis=4	!	!LO:TX:a:i:t=Solo	!LO:TX:a:i:t=Solo
4.AA/	.	4.A/	.	4.cc#\	.	4.aa\	.	4.AA/	-cem	4.e\	-cem	4.a\	-cem	4.cc#\	-cem	.	4.a/	4.ee\	8a\L	8cc#\L
.	.	.	.	.	.	.	.	.	.	.	.	.	.	.	.	.	.	.	8b\	8dd\
.	.	.	.	.	.	.	.	.	.	.	.	.	.	.	.	.	.	.	8cc#\J	8ee\J
4r	.	4r	.	4r	.	4r	.	4r	.	4r	.	4r	.	4r	.	.	4r	4r	8a\L	8cc#\L
.	.	.	.	.	.	.	.	.	.	.	.	.	.	.	.	.	.	.	8b\	8dd\
8r	.	8r	.	8r	.	8r	.	8r	.	8r	.	8r	.	8r	.	.	8ryy	8ryy	8cc#\J	8ee\J
!	!	!	!	!	!	!	!	!	!	!	!	!	!	!	!	!	!LO:LB:g=original	!	!	!
=26	=26	=26	=26	=26	=26	=26	=26	=26	=26	=26	=26	=26	=26	=26	=26	=26	=26	=26	=26	=26
!LO:TX:a:t=3	!	!	!	!	!	!	!	!LO:TX:a:t=3	!	!LO:TX:a:t=3	!	!LO:TX:a:t=3	!	!LO:TX:a:t=3.	!	!	!	!	!	!
.	.	.	.	.	.	.	.	.	.	.	.	.	.	.	.	.	.	.	8qqcc#/	8qqee/
!LO:N:vis=0	!	!LO:N:vis=0	!	!	!LO:DY:a:t=p&colon;	!	!LO:DY:a:t=p&colon;	!LO:N:vis=0	!	!LO:N:vis=0	!	!LO:N:vis=0	!	!LO:N:vis=0	!	!	!	!LO:N:vis=0	!	!
1.r	.	1.r	.	8e/L	p	8e/L	p	1.r	.	1.r	.	1.r	.	1.r	.	.	2.r	1.r	2.b\	2.dd\
.	.	.	.	8f#/	.	8f#/	.	.	.	.	.	.	.	.	.	.	.	.	.	.
!	!	!	!	!LO:TX:a:t=P:♯below:problem	!	!	!	!	!	!	!	!	!	!	!	!	!	!	!	!
.	.	.	.	8g#X/J	.	8g#X/J	.	.	.	.	.	.	.	.	.	.	.	.	.	.
.	.	.	.	8e/L	.	8e/L	.	.	.	.	.	.	.	.	.	.	.	.	.	.
.	.	.	.	8f#/	.	8f#/	.	.	.	.	.	.	.	.	.	.	.	.	.	.
.	.	.	.	8g#X/J	.	8g#/J	.	.	.	.	.	.	.	.	.	.	.	.	.	.
=27	=27	=27	=27	=27	=27	=27	=27	=27	=27	=27	=27	=27	=27	=27	=27	=27	=27	=27	=27	=27
!	!	!	!	!	!	!	!	!	!	!	!	!	!	!	!	!	!LO:TX:a:t=P:problem=brak taktów 27-28	!	!LO:TX:a:t=P:problem=takty 27-28 powtórzone repetycją	!
.	.	.	.	4.a/	.	4.a/	.	.	.	.	.	.	.	.	.	.	2.ryy	.	8a\Lyy	8cc#\L
.	.	.	.	.	.	.	.	.	.	.	.	.	.	.	.	.	.	.	8b\yy	8dd\
.	.	.	.	.	.	.	.	.	.	.	.	.	.	.	.	.	.	.	8cc#\Jyy	8ee\J
.	.	.	.	4r	.	4r	.	.	.	.	.	.	.	.	.	.	.	.	8a\Lyy	8cc#\L
.	.	.	.	.	.	.	.	.	.	.	.	.	.	.	.	.	.	.	8b\yy	8dd\
.	.	.	.	8r	.	8r	.	.	.	.	.	.	.	.	.	.	.	.	8cc#\Jyy	8ee\J
=28	=28	=28	=28	=28	=28	=28	=28	=28	=28	=28	=28	=28	=28	=28	=28	=28	=28	=28	=28	=28
.	.	.	.	.	.	.	.	.	.	.	.	.	.	.	.	.	.	.	8qqcc#/yy	8qqee/
!LO:N:vis=1	!	!LO:N:vis=1	!	!	!	!	!	!LO:N:vis=1	!	!	!	!	!	!	!	!	!	!	!	!
2.r	.	2.r	.	8e/L	.	8e/L	.	2.r	.	2.r	.	2.r	.	2.r	.	.	2.ryy	2.r	2.b\yy	2.dd\
.	.	.	.	8f#/	.	8f#/	.	.	.	.	.	.	.	.	.	.	.	.	.	.
.	.	.	.	8g#X/J	.	8g#X/J	.	.	.	.	.	.	.	.	.	.	.	.	.	.
.	.	.	.	8e/L	.	8e/L	.	.	.	.	.	.	.	.	.	.	.	.	.	.
.	.	.	.	8f#/	.	8f#/	.	.	.	.	.	.	.	.	.	.	.	.	.	.
.	.	.	.	8g#X/J	.	8g#/J	.	.	.	.	.	.	.	.	.	.	.	.	.	.
!	!	!	!	!	!	!	!	!	!	!	!	!	!	!LO:TX:b:t=Volti Ci [uszkodzony papier]	!	!	!	!	!	!
!	!	!	!	!	!	!	!	!	!	!	!	!	!	!LO:PB:g=original	!	!	!	!LO:LB:g=original	!	!
=29	=29	=29	=29	=29	=29	=29	=29	=29	=29	=29	=29	=29	=29	=29	=29	=29	=29	=29	=29	=29
!	!	!	!	!	!	!LO:TX:a:t=P:problem=mixed beam	!	!	!	!	!	!	!	!	!	!	!	!	!	!
!	!	!	!	!	!LO:DY:a:t=f&colon;	!LO:TX:a:t=T&colon;	!	!	!	!	!	!	!	!	!	!	!	!	!	!
4r	.	4r	.	8a\L	f	8a/L	.	4r	.	4r	.	4r	.	4r	.	.	4.r	4r	4.a/	4.cc#\
.	.	.	.	8cc#\	.	8aa\	.	.	.	.	.	.	.	.	.	.	.	.	.	.
8r	.	8r	.	8cc#\J	.	8aa\J	.	8r	.	8r	.	8r	.	8r	.	.	.	8ryy	.	.
!	!	!	!	!	!	!	!	!	!	!	!	!	!	!	!	!	!LO:SIC:s=4.g:v	!	!	!
*	*	*	*	*tremolo	*	*tremolo	*	*	*	*	*	*	*	*	*	*	*	*	*	*
*	*	*	*	*	*	*tremolo	*	*	*	*	*	*	*	*	*	*	*	*	*	*
4.F#\	.	4.f#\	.	8cc#\L	.	16aa\LL	.	4.F#\	da	4.f#\	Da	4.a\	da	4.cc#\	Da	.	4.dd\	4.ff#\	4.cc#\	4.aa\
.	.	.	.	.	.	16aa\	.	.	.	.	.	.	.	.	.	.	.	.	.	.
.	.	.	.	8cc#\	.	16aa\	.	.	.	.	.	.	.	.	.	.	.	.	.	.
.	.	.	.	.	.	16aa\	.	.	.	.	.	.	.	.	.	.	.	.	.	.
.	.	.	.	8cc#\J	.	16aa\	.	.	.	.	.	.	.	.	.	.	.	.	.	.
.	.	.	.	.	.	16aa\JJ	.	.	.	.	.	.	.	.	.	.	.	.	.	.
=30	=30	=30	=30	=30	=30	=30	=30	=30	=30	=30	=30	=30	=30	=30	=30	=30	=30	=30	=30	=30
!	!	!	!	!	!	!	!	!	!	!	!	!	!	!	!	!	!	!LO:SIC:s=4.ee:v	!	!
4.D\	6 5	4.f#\	.	8b\L	.	8aa\L	.	4.D\	pa-	4.f#\	pa-	(4.a\	pa-	2.b\	Pa-	.	4.a/	4.ee\	2.b\	4.aa\
.	.	.	.	8b\	.	8aa\	.	.	.	.	.	.	.	.	.	.	.	.	.	.
.	.	.	.	8b\J	.	8aa\J	.	.	.	.	.	.	.	.	.	.	.	.	.	.
!	!	!	!	!	!	!	!	!	!	!	!	!	!	!	!	!	!LO:SIC:s=4.a:v	!	!	!
4.E\	#	4.e\	.	8b\L	.	8gg#X\L	.	4.E\	.	4.e\	.	4.g#X\)	.	.	.	.	4.a/	4.ee\	.	4.gg#X\
.	.	.	.	8b\	.	8gg#X\	.	.	.	.	.	.	.	.	.	.	.	.	.	.
.	.	.	.	8b\J	.	8gg#X\J	.	.	.	.	.	.	.	.	.	.	.	.	.	.
!	!	!	!	!	!	!	!	!	!	!	!	!	!	!	!	!	!	!	!	!LO:LB:g=original
*	*	*	*	*	*	*Xtremolo	*	*	*	*	*	*	*	*	*	*	*	*	*	*
=31	=31	=31	=31	=31	=31	=31	=31	=31	=31	=31	=31	=31	=31	=31	=31	=31	=31	=31	=31	=31
4.A\	.	4.e\	.	8cc#\L	.	8cc#\L	.	4.A\	-cem	4.e\	-cem	4.a\	-cem	4.cc#\	-ce(m)	.	4.a/	4.ee\	4.cc#\	4.aa\
.	.	.	.	8cc#\	.	8aa\	.	.	.	.	.	.	.	.	.	.	.	.	.	.
.	.	.	.	8cc#\J	.	8aa\J	.	.	.	.	.	.	.	.	.	.	.	.	.	.
!	!	!	!	!	!	!	!	!	!	!	!	!	!	!	!	!	!LO:SIC:s=4.g:v	!	!	!
*	*	*	*	*	*	*tremolo	*	*	*	*	*	*	*	*	*	*	*	*	*	*
4.F#\	.	4.f#\	.	8cc#\L	.	8aa\L	.	4.F#\	da	4.f#\	Da	4.cc#\	da	4.aa\	Da	.	4.dd\	4.ff#\	4r	4r
.	.	.	.	8cc#\	.	8aa\	.	.	.	.	.	.	.	.	.	.	.	.	.	.
.	.	.	.	8cc#\J	.	8aa\J	.	.	.	.	.	.	.	.	.	.	.	.	8r	8r
!	!	!	!	!	!	!	!	!LO:LB:g=original	!	!	!	!	!	!	!	!	!	!	!	!
=32	=32	=32	=32	=32	=32	=32	=32	=32	=32	=32	=32	=32	=32	=32	=32	=32	=32	=32	=32	=32
!	!	!	!	!	!	!	!	!	!	!	!	!	!	!	!	!	!LO:SIC:s=4.g:v	!LO:SIC:s=4.ee:v	!LO:TX:a:t=3	!LO:TX:a:t=2
!	!	!	!	!	!	!	!	!	!	!	!	!	!	!	!	!	!	!	!LO:N:vis=0	!LO:N:vis=0
4.D\	6 5	4.f#\	.	8b\L	.	8aa\L	.	4.D\	pa-	(4.f#\	pa-	2.b\	pa-	4.aa\	Pa-	.	4.dd\	4.ee\	1.r	1.r
.	.	.	.	8b\	.	8aa\	.	.	.	.	.	.	.	.	.	.	.	.	.	.
.	.	.	.	8b\J	.	8aa\J	.	.	.	.	.	.	.	.	.	.	.	.	.	.
*	*	*	*	*Xtremolo	*	*	*	*	*	*	*	*	*	*	*	*	*	*	*	*
!	!	!	!	!LO:LB:g=original	!	!	!	!	!	!	!	!	!	!	!	!	!LO:SIC:s=4.a:v	!	!	!
4.E\	#	4.e\	.	8b\L	.	8gg#X\L	.	4.E\	.	4.e\)	.	.	.	4.gg#X\	.	.	4.a/	4.ee\	.	.
.	.	.	.	8b\	.	8gg#X\	.	.	.	.	.	.	.	.	.	.	.	.	.	.
.	.	.	.	8b\J	.	8gg#X\J	.	.	.	.	.	.	.	.	.	.	.	.	.	.
*	*	*	*	*	*	*Xtremolo	*	*	*	*	*	*	*	*	*	*	*	*	*	*
=33	=33	=33	=33	=33	=33	=33	=33	=33	=33	=33	=33	=33	=33	=33	=33	=33	=33	=33	=33	=33
!	!	!	!	!	!	!	!	!	!	!	!	!	!	!	!	!	!	!LO:SIC:s=4.dd:v	!	!
4.AA/	.	4.e\	.	4.cc#\	.	4.aa\	.	4.AA/	-cem	4.e\	-cem	4.cc#\	-cem	4.aa\	-cem	.	4.ee\	4.dd\	.	.
4r	.	4r	.	4r	.	4.r	.	4r	.	4r	.	4r	.	4r	.	.	4.r	4.r	.	.
8r	.	8r	.	8r	.	.	.	8r	.	8r	.	8r	.	8r	.	.	.	.	.	.
=34	=34	=34	=34	=34	=34	=34	=34	=34	=34	=34	=34	=34	=34	=34	=34	=34	=34	=34	=34	=34
!LO:TX:a:t=6	!	!	!	!LO:TX:a:t=1	!	!LO:TX:a:t=1	!	!LO:TX:a:t=6	!	!LO:TX:a:t=6	!	!LO:TX:a:t=6	!	!LO:TX:a:t=6.	!	!	!LO:N:vis=00	!LO:N:vis=00	!	!
!LO:N:vis=00	!	!	!	!	!	!	!	!LO:N:vis=00	!	!LO:N:vis=00	!	!LO:N:vis=00	!	!LO:N:vis=00	!	!	!	!	!	!
0.r	.	4.A/	.	2.r	.	2.r	.	0.r	.	0.r	.	0.r	.	0.r	.	.	0.r	0.r	2.r	8cccn\L
.	.	.	.	.	.	.	.	.	.	.	.	.	.	.	.	.	.	.	.	8bb\
.	.	.	.	.	.	.	.	.	.	.	.	.	.	.	.	.	.	.	.	8aa\J
.	.	4r	.	.	.	.	.	.	.	.	.	.	.	.	.	.	.	.	.	8ggn\L
.	.	.	.	.	.	.	.	.	.	.	.	.	.	.	.	.	.	.	.	8ff#\
.	.	8r	.	.	.	.	.	.	.	.	.	.	.	.	.	.	.	.	.	8ee\J
!	!	!	!	!	!	!LO:LB:g=original	!	!	!	!	!	!	!	!	!	!	!	!	!	!
=35	=35	=35	=35	=35	=35	=35	=35	=35	=35	=35	=35	=35	=35	=35	=35	=35	=35	=35	=35	=35
!	!	!	!	!	!	!	!	!	!	!	!	!	!	!	!	!	!	!	!LO:TX:a:i:t=Solo	!
.	.	.	.	.	.	.	.	.	.	.	.	.	.	.	.	.	.	.	.	8qqee/
!	!	!	!	!	!	!	!LO:DY:a:t=p&colon;	!	!	!	!	!	!	!	!	!	!	!	!	!
.	.	4.B/	.	8ccn\L	.	8ccn/L	p	.	.	.	.	.	.	.	.	.	.	.	4.a/	4.dd#X\
.	.	.	.	8b\	.	8b/	.	.	.	.	.	.	.	.	.	.	.	.	.	.
.	.	.	.	8a\J	.	8a/J	.	.	.	.	.	.	.	.	.	.	.	.	.	.
.	.	4.e\	.	8gn/L	.	8gn/L	.	.	.	.	.	.	.	.	.	.	.	.	4.gn/	4.ee\
.	.	.	.	8f#/	.	8f#/	.	.	.	.	.	.	.	.	.	.	.	.	.	.
.	.	.	.	8e/J	.	8e/J	.	.	.	.	.	.	.	.	.	.	.	.	.	.
=36	=36	=36	=36	=36	=36	=36	=36	=36	=36	=36	=36	=36	=36	=36	=36	=36	=36	=36	=36	=36
!	!	!LO:N:vis=4	!	!	!	!LO:TX:a:t=1	!	!	!	!	!	!	!	!	!	!	!	!	!LO:TX:a:t=1	!
.	.	4.G/	.	2.r	.	2.r	.	.	.	.	.	.	.	.	.	.	.	.	2.r	8bb\L
.	.	.	.	.	.	.	.	.	.	.	.	.	.	.	.	.	.	.	.	8aa\
.	.	.	.	.	.	.	.	.	.	.	.	.	.	.	.	.	.	.	.	8gg\J
.	.	4r	.	.	.	.	.	.	.	.	.	.	.	.	.	.	.	.	.	8ff#\L
.	.	.	.	.	.	.	.	.	.	.	.	.	.	.	.	.	.	.	.	8ee\
.	.	8r	.	.	.	.	.	.	.	.	.	.	.	.	.	.	.	.	.	8dd\J
!	!	!LO:LB:g=original	!	!	!	!	!	!	!	!	!	!	!	!	!	!	!	!	!	!
=37	=37	=37	=37	=37	=37	=37	=37	=37	=37	=37	=37	=37	=37	=37	=37	=37	=37	=37	=37	=37
.	.	4.A/	.	8b/L	.	8b/L	.	.	.	.	.	.	.	.	.	.	.	.	4.g/	4.cc#\
.	.	.	.	8a/	.	8a/	.	.	.	.	.	.	.	.	.	.	.	.	.	.
.	.	.	.	8g/J	.	8g/J	.	.	.	.	.	.	.	.	.	.	.	.	.	.
.	.	4.d\	.	8f#/L	.	8f#/L	.	.	.	.	.	.	.	.	.	.	.	.	4.f#/	4.dd\
.	.	.	.	8e/	.	8e/	.	.	.	.	.	.	.	.	.	.	.	.	.	.
.	.	.	.	8d/J	.	8d/J	.	.	.	.	.	.	.	.	.	.	.	.	.	.
=38	=38	=38	=38	=38	=38	=38	=38	=38	=38	=38	=38	=38	=38	=38	=38	=38	=38	=38	=38	=38
!LO:N:vis=0	!	!	!	!	!	!	!	!LO:N:vis=0	!	!LO:N:vis=0	!	!LO:N:vis=0	!	!LO:N:vis=0	!	!	!LO:N:vis=0	!LO:N:vis=0	!	!
!LO:TX:a:t=T&colon;	!	!	!	!	!	!	!	!	!	!	!	!	!	!	!	!	!	!	!	!
1.r	.	4.c#\	.	4.c#/	.	4.c#/	.	1.r	.	1.r	.	1.r	.	1.r	.	.	1.r	1.r	4.a/	8a\L
.	.	.	.	.	.	.	.	.	.	.	.	.	.	.	.	.	.	.	.	8cc#\
.	.	.	.	.	.	.	.	.	.	.	.	.	.	.	.	.	.	.	.	8ee\J
.	.	4.d\	.	4.c#/	.	4.d/	.	.	.	.	.	.	.	.	.	.	.	.	4ee\	4gg\
.	.	.	.	.	.	.	.	.	.	.	.	.	.	.	.	.	.	.	8dd\	8ff#\
=39	=39	=39	=39	=39	=39	=39	=39	=39	=39	=39	=39	=39	=39	=39	=39	=39	=39	=39	=39	=39
!	!	!LO:N:vis=4	!	!	!	!	!	!	!	!	!	!	!	!	!	!	!	!	!	!
.	.	4.A/	.	4.A/	.	4.A/	.	.	.	.	.	.	.	.	.	.	.	.	4.cc#\	4.ee\
.	.	4r	.	4r	.	4r	.	.	.	.	.	.	.	.	.	.	.	.	4r	4r
!	!	!	!LO:DY:a	!	!	!	!	!	!	!	!	!	!	!	!	!	!	!	!	!
.	.	8r	f	8r	.	8r	.	.	.	.	.	.	.	.	.	.	.	.	8r	8r
=40	=40	=40	=40	=40	=40	=40	=40	=40	=40	=40	=40	=40	=40	=40	=40	=40	=40	=40	=40	=40
!	!	!	!	!LO:TX:a:t=T&colon;	!	!	!	!	!	!	!	!	!	!	!	!	!	!	!	!
!	!	!	!	!LO:TX:a:t=P:problem=mixed beam	!	!	!LO:DY:a:t=f&colon;	!	!	!	!	!	!	!	!	!	!	!	!LO:TX:a:t=T&colon;	!
4.d\	8_ 3_	4.dd\	.	8d/L	.	8dd\L	f	4.d\	Do-	4.A\	Do-	4.d\	Do-	4.dd\	Do-	.	2.f#/	2.dd\	4.f#/	4.dd\
.	.	.	.	8dd\	.	8ff#\	.	.	.	.	.	.	.	.	.	.	.	.	.	.
.	.	.	.	8dd\J	.	8ff#\J	.	.	.	.	.	.	.	.	.	.	.	.	.	.
*	*	*	*	*tremolo	*	*	*	*	*	*	*	*	*	*	*	*	*	*	*	*
4.c#\	.	4.cc#\	.	8dd\L	.	8ff#\L	.	4.c#\	-na	4.A\	-na	4.f#\	-na	4.dd\	-na	.	.	.	4.dd\	4.ff#\
.	x	.	.	8dd\	.	8ff#\	.	.	.	.	.	.	.	.	.	.	.	.	.	.
.	.	.	.	8dd\J	.	8ff#\J	.	.	.	.	.	.	.	.	.	.	.	.	.	.
*	*	*	*	*Xtremolo	*	*	*	*	*	*	*	*	*	*	*	*	*	*	*	*
!	!	!	!	!	!	!	!	!	!	!	!	!LO:LB:g=original	!	!	!	!	!	!	!	!
=41	=41	=41	=41	=41	=41	=41	=41	=41	=41	=41	=41	=41	=41	=41	=41	=41	=41	=41	=41	=41
4.B\	.	4.b\	.	8dd\L	.	8ff#\L	.	4.B\	no-	4.A\	no-	4.f#\	no-	4.dd\	no-	.	2.dd\	2.ff#\	4.dd\	4.ff#\
.	.	.	.	8ff#\	.	8aa\	.	.	.	.	.	.	.	.	.	.	.	.	.	.
.	.	.	.	8ff#\J	.	8aa\J	.	.	.	.	.	.	.	.	.	.	.	.	.	.
*	*	*	*	*tremolo	*	*	*	*	*	*	*	*	*	*	*	*	*	*	*	*
4.F#\	.	4.f#\	.	8ff#\L	.	8aa\L	.	4.F#\	-bis	4.A\	-bis	4.a\	-bis	4.dd\	-bis	.	.	.	4.ff#\	4.aa\
.	.	.	.	8ff#\	.	8aa\	.	.	.	.	.	.	.	.	.	.	.	.	.	.
.	.	.	.	8ff#\J	.	8aa\J	.	.	.	.	.	.	.	.	.	.	.	.	.	.
!LO:LB:g=original	!	!	!	!	!	!	!	!	!	!	!	!	!	!	!	!	!	!	!	!
=42	=42	=42	=42	=42	=42	=42	=42	=42	=42	=42	=42	=42	=42	=42	=42	=42	=42	=42	=42	=42
4.G\	3	4.g\	.	8ff#\L	.	8aa\L	.	4.G\	pa-	4.A\	pa-	(4.a\	pa-	(4.dd\	Pa-	.	2.dd\	2.ff#\	4.ff#\	4.aa\
.	.	.	.	8ff#\	.	8ddd\	.	.	.	.	.	.	.	.	.	.	.	.	.	.
.	.	.	.	8ff#\J	.	8ddd\J	.	.	.	.	.	.	.	.	.	.	.	.	.	.
*	*	*	*	*	*	*tremolo	*	*	*	*	*	*	*	*	*	*	*	*	*	*
4.G#X\	7 5	4.g#X\	.	8ff#\L	.	8ddd\L	.	4.G#X\	.	4.B\	.	4.dd\)	.	4.ff#\)	.	.	.	.	4.ff#\	4.ddd\
.	.	.	.	8ff#\	.	8ddd\	.	.	.	.	.	.	.	.	.	.	.	.	.	.
.	.	.	.	8ff#\J	.	8ddd\J	.	.	.	.	.	.	.	.	.	.	.	.	.	.
*	*	*	*	*	*	*Xtremolo	*	*	*	*	*	*	*	*	*	*	*	*	*	*
*	*	*	*	*Xtremolo	*	*Xtremolo	*	*	*	*	*	*	*	*	*	*	*	*	*	*
=43	=43	=43	=43	=43	=43	=43	=43	=43	=43	=43	=43	=43	=43	=43	=43	=43	=43	=43	=43	=43
!	!	!LO:N:vis=4	!	!	!	!	!	!	!	!	!	!	!	!	!	!	!	!	!	!
4.A\	.	4.a\	.	4.ee\	.	4.ccc#\	.	4.A\	-cem	4.A\	-cem	4.cc#\	-cem	4.ee\	-cem	.	4.a/	4.ee\	4.ee\	4.ccc#\
4r	.	4r	.	4r	.	4r	.	4r	.	4r	.	4r	.	4r	.	.	4r	4.r	4r	4r
!	!	!	!	!	!LO:DY:a:t=p&colon;	!	!	!	!	!	!	!	!	!	!	!	!	!	!	!
8r	.	8r	.	8r	p	8r	.	8r	.	8r	.	8r	.	8r	.	.	8ryy	.	8r	8r
!	!	!	!	!	!	!	!	!	!	!LO:LB:g=original	!	!	!	!	!	!	!	!	!LO:LB:g=original	!LO:LB:g=original
=44	=44	=44	=44	=44	=44	=44	=44	=44	=44	=44	=44	=44	=44	=44	=44	=44	=44	=44	=44	=44
!	!	!	!	!	!	!	!	!	!	!	!	!	!	!LO:TX:a:t=P:problem=klamra łukowa nad "2."	!	!	!	!	!LO:N:vis=0	!LO:N:vis=0
!LO:TX:a:t=2	!	!	!	!	!	!	!LO:DY:a:t=p&colon;	!	!	!LO:TX:a:t=2	!	!LO:TX:a:t=2	!	!LO:TX:a:t=2.	!	!	!LO:N:vis=0	!LO:N:vis=0	!LO:TX:a:t=2	!LO:TX:a:t=2
!LO:N:vis=0	!	!LO:N:vis=0	!	!	!	!	!	!LO:N:vis=0	!	!LO:N:vis=0	!	!LO:N:vis=0	!	!LO:N:vis=0	!	!	!	!	!	!
1.r	.	1.r	.	8gg'\L	.	8bb'\L	p	1.r	.	1.r	.	1.r	.	1.r	.	.	1.r	1.r	1.r	1.r
.	.	.	.	8ff#'\	.	8aa'\	.	.	.	.	.	.	.	.	.	.	.	.	.	.
.	.	.	.	8ee'\J	.	8gg'\J	.	.	.	.	.	.	.	.	.	.	.	.	.	.
!	!	!	!	!	!	!LO:LB:g=original	!LO:DY:a:t=p&colon;	!	!	!	!	!	!	!	!	!	!	!	!	!
.	.	.	.	8dd'\L	.	8ff#'\L	p	.	.	.	.	.	.	.	.	.	.	.	.	.
.	.	.	.	8cc#'\	.	8ee'\	.	.	.	.	.	.	.	.	.	.	.	.	.	.
.	.	.	.	8b'\J	.	8dd'\J	.	.	.	.	.	.	.	.	.	.	.	.	.	.
!	!	!	!	!LO:LB:g=original	!	!	!	!	!	!	!	!	!	!	!	!	!	!	!	!
=45	=45	=45	=45	=45	=45	=45	=45	=45	=45	=45	=45	=45	=45	=45	=45	=45	=45	=45	=45	=45
.	.	.	.	8a`/L	.	8cc#'\L	.	.	.	.	.	.	.	.	.	.	.	.	.	.
.	.	.	.	8g`/	.	8b'\	.	.	.	.	.	.	.	.	.	.	.	.	.	.
.	.	.	.	8f#`/J	.	8a'\J	.	.	.	.	.	.	.	.	.	.	.	.	.	.
.	.	.	.	8e`/L	.	8g'/L	.	.	.	.	.	.	.	.	.	.	.	.	.	.
.	.	.	.	8d`/	.	8f#'/	.	.	.	.	.	.	.	.	.	.	.	.	.	.
.	.	.	.	8c#`/J	.	8e'/J	.	.	.	.	.	.	.	.	.	.	.	.	.	.
!	!	!	!	!	!	!	!	!	!	!	!	!	!	!LO:LB:g=original	!	!	!	!	!	!
=46	=46	=46	=46	=46	=46	=46	=46	=46	=46	=46	=46	=46	=46	=46	=46	=46	=46	=46	=46	=46
!	!	!	!	!	!LO:DY:a:t=f&colon;	!LO:TX:a:t=P:problem=mixed beam	!LO:DY:a:t=f&colon;	!	!	!	!	!	!	!	!	!	!	!	!	!
4D\	.	4d\	.	8d/L	f	8f#/L	f	4D\	pa-	2.A\	pa-	4.f#\	pa-	(4.dd\	Pa-	.	4.dd\	4.ff#\	4.ff#\	4.dd\
.	.	.	.	8f#/	.	8dd\	.	.	.	.	.	.	.	.	.	.	.	.	.	.
8F#\	6	8f#\	.	8f#/J	.	8dd\J	.	8F#\	.	.	.	.	.	.	.	.	.	.	.	.
!	!	!	!	!	!	!LO:TX:a:t=P:problem=mixed beam	!	!	!	!	!	!	!	!	!	!	!	!	!	!
4G\	6 5	4g\	.	8e/L	.	8e/L	.	4G\	.	.	.	4.e\	.	4.cc#\)	.	.	4.a\	4.ee\	4.ee\	4.cc#\
.	.	.	.	8e/	.	8cc#\	.	.	.	.	.	.	.	.	.	.	.	.	.	.
8A\	.	8a\	.	8e/J	.	8cc#\J	.	8A\	.	.	.	.	.	.	.	.	.	.	.	.
=47	=47	=47	=47	=47	=47	=47	=47	=47	=47	=47	=47	=47	=47	=47	=47	=47	=47	=47	=47	=47
4.B\	.	4.g\	.	4.f#/	.	4.d/	.	4.B\	-cem	4.B\	-cem	4.f#\	-cem	4.dd\	-ce(m)	.	4.dd\	4.ff#\	4.ff#\	4.dd\
!	!	!	!	!	!	!	!	!	!	!	!	!	!	!	!	!	!	!	!LO:TX:a:i:t=Solo	!LO:TX:a:i:t=Solo
4r	.	4r	.	4r	.	4r	.	4r	.	4r	.	4r	.	4r	.	.	4r	4.r	8dd\L	8ff#\L
.	.	.	.	.	.	.	.	.	.	.	.	.	.	.	.	.	.	.	8ee\	8gg\
8r	.	8r	.	8r	.	8r	.	8r	.	8r	.	8r	.	8r	.	.	8ryy	.	8ff#\J	8aa\J
=48	=48	=48	=48	=48	=48	=48	=48	=48	=48	=48	=48	=48	=48	=48	=48	=48	=48	=48	=48	=48
!	!	!	!	!	!	!	!	!	!	!	!	!	!	!LO:TX:a:t=P:problem=klamra kwadratowa nad "2."	!	!	!	!	!	!
!LO:TX:a:t=2	!	!	!	!	!LO:DY:a:t=p&colon;	!	!LO:DY:a:t=p&colon;	!	!	!LO:TX:a:t=2	!	!LO:TX:a:t=2	!	!LO:TX:a:t=2.	!	!	!LO:N:vis=0	!LO:N:vis=0	!	!
!LO:N:vis=0	!	!LO:N:vis=0	!	!	!	!	!	!LO:N:vis=0	!	!LO:N:vis=0	!	!LO:N:vis=0	!	!LO:N:vis=0	!	!	!	!	!	!
1.r	.	1.r	.	8gg'\L	p	8bb'\L	p	1.r	.	1.r	.	1.r	.	1.r	.	.	1.r	1.r	4.ee\	4.gg\
.	.	.	.	8ff#'\	.	8aa'\	.	.	.	.	.	.	.	.	.	.	.	.	.	.
.	.	.	.	8ee'\J	.	8gg'\J	.	.	.	.	.	.	.	.	.	.	.	.	.	.
.	.	.	.	8dd'\L	.	8ff#'\L	.	.	.	.	.	.	.	.	.	.	.	.	4r	4r
.	.	.	.	8cc#'\	.	8ee'\	.	.	.	.	.	.	.	.	.	.	.	.	.	.
.	.	.	.	8b'\J	.	8dd'\J	.	.	.	.	.	.	.	.	.	.	.	.	8r	8r
=49	=49	=49	=49	=49	=49	=49	=49	=49	=49	=49	=49	=49	=49	=49	=49	=49	=49	=49	=49	=49
!	!	!	!	!	!	!	!	!	!	!	!	!	!	!	!	!	!	!	!LO:TX:a:t=1	!LO:TX:a:t=1
.	.	.	.	8a'/L	.	8cc#`\L	.	.	.	.	.	.	.	.	.	.	.	.	2.r	2.r
.	.	.	.	8g'/	.	8b'\	.	.	.	.	.	.	.	.	.	.	.	.	.	.
.	.	.	.	8f#'/J	.	8a'\J	.	.	.	.	.	.	.	.	.	.	.	.	.	.
.	.	.	.	8e'/L	.	8g'/L	.	.	.	.	.	.	.	.	.	.	.	.	.	.
.	.	.	.	8d'/	.	8f#'/	.	.	.	.	.	.	.	.	.	.	.	.	.	.
.	.	.	.	8c#'/J	.	8e'/J	.	.	.	.	.	.	.	.	.	.	.	.	.	.
!	!	!	!	!	!	!	!	!	!	!	!	!	!	!	!	!	!LO:LB:g=original	!	!	!
=50	=50	=50	=50	=50	=50	=50	=50	=50	=50	=50	=50	=50	=50	=50	=50	=50	=50	=50	=50	=50
!	!	!	!	!	!LO:DY:a:t=f&colon;	!LO:TX:a:t=P:problem=mixed beam	!LO:DY:a:t=f&colon;	!	!	!	!	!	!	!	!	!	!	!	!	!
*	*	*	*	*	*	*	*	*	*	*	*ij	*	*ij	*	*	*	*	*	*	*
4D\	.	4d\	.	8d/L	f	8f#/L	f	4D\	pa-	2.A\	pa-	4.f#\	pa-	(4.dd\	Pa-	.	4.dd\	4.ff#\	4.ff#\	4.dd\
.	.	.	.	8f#/	.	8dd\	.	.	.	.	.	.	.	.	.	.	.	.	.	.
8F#\	6	8f#\	.	8f#/J	.	8dd\J	.	8F#\	.	.	.	.	.	.	.	.	.	.	.	.
!	!	!	!	!	!	!LO:TX:a:t=P:problem=mixed beam	!	!LO:LB:g=original	!	!	!	!	!	!	!	!	!	!	!	!
4G\	6 5	4g\	.	8e/L	.	8e/L	.	4G\	.	.	.	4.e\	.	4.cc#\)	.	.	4.a/	4ee\	4.ee\	4.cc#\
.	.	.	.	8e/	.	8cc#\	.	.	.	.	.	.	.	.	.	.	.	.	.	.
!	!	!	!	!	!	!	!	!	!	!	!	!	!	!	!	!	!	!LO:N:vis=4	!	!
8A\	.	8a\	.	8e/J	.	8cc#\J	.	8A\	.	.	.	.	.	.	.	.	.	8dd\	.	.
=51	=51	=51	=51	=51	=51	=51	=51	=51	=51	=51	=51	=51	=51	=51	=51	=51	=51	=51	=51	=51
8D\L	.	8dd\L	.	8f#/L	.	8dd\L	.	4.D\	-cem	4.A\	-cem	4.f#\	-cem	4.dd\	-cem	.	4.f#/	4.dd\	4.ff#\	4.dd\
*	*	*	*	*	*	*	*	*	*	*	*Xij	*	*Xij	*	*	*	*	*	*	*
8A\	.	8a\	.	8a/	.	8a\	.	.	.	.	.	.	.	.	.	.	.	.	.	.
8F#\J	.	8f#\J	.	8f#/J	.	8f#\J	.	.	.	.	.	.	.	.	.	.	.	.	.	.
4D\	.	4d\	.	4d/	.	8d/	.	4r	.	4r	.	4r	.	4r	.	.	4r	4.r	4r	4r
.	.	.	.	.	.	8r	.	.	.	.	.	.	.	.	.	.	.	.	.	.
8r	.	8r	.	8r	.	8r	.	8r	.	8r	.	8r	.	8r	.	.	8ryy	.	8r	8r
=52	=52	=52	=52	=52	=52	=52	=52	=52	=52	=52	=52	=52	=52	=52	=52	=52	=52	=52	=52	=52
*clefC4	*	*	*	*	*	*	*	*	*	*	*	*	*	*	*	*	*	*	*	*
!	!	!	!	!	!	!LO:TX:a:t=P:problem=2\right&colon; global	!	!LO:N:vis=0	!	!LO:TX:a:t=P:problem=8\right&colon; global	!	!	!	!	!	!	!LO:N:vis=00	!LO:N:vis=00	!	!
8d\L	7_ 5n_	8d\L	.	2.a/	.	2.ccn\	.	1.r	.	8d\L	pa-	2.a\	Da	2.ccn\	Da	.	0.r	0.r	2.dd\	2.dd\
8e\	.	8e\	.	.	.	.	.	.	.	8e\	.	.	.	.	.	.	.	.	.	.
8f#\J	.	8f#\J	.	.	.	.	.	.	.	8f#\J	.	.	.	.	.	.	.	.	.	.
8d\L	.	8d\L	.	.	.	.	.	.	.	8d\L	.	.	.	.	.	.	.	.	.	.
8e\	.	8e\	.	.	.	.	.	.	.	8e\	.	.	.	.	.	.	.	.	.	.
8f#\J	x	8f#\J	.	.	.	.	.	.	.	8f#\J	.	.	.	.	.	.	.	.	.	.
!	!	!LO:LB:g=original	!	!	!	!LO:LB:g=original	!	!	!	!	!	!	!	!	!	!	!	!	!	!
=53	=53	=53	=53	=53	=53	=53	=53	=53	=53	=53	=53	=53	=53	=53	=53	=53	=53	=53	=53	=53
4.g\	.	4.g\	.	8g/L	.	8b\L	.	.	.	4.g\	-cem	8g\L	pa-	8b\L	Pa-	.	.	.	2.dd\	2.dd\
.	.	.	.	8a/	.	8cc#\	.	.	.	.	.	8a\	.	8cc#\	.	.	.	.	.	.
.	.	.	.	8b/J	.	8ddn\J	.	.	.	.	.	8b\J	.	8dd\J	.	.	.	.	.	.
4r	.	4r	.	8g/L	.	8b\L	.	.	.	4r	.	8g\L	.	8b\L	.	.	.	.	.	.
.	.	.	.	8a/	.	8cc#\	.	.	.	.	.	8a\	.	8cc#\	.	.	.	.	.	.
8r	.	8r	.	8b/J	.	8dd\J	.	.	.	8r	.	8b\J	.	8dd\J	.	.	.	.	.	.
!LO:LB:g=original	!	!	!	!	!	!	!	!	!	!	!	!LO:LB:g=original	!	!	!	!	!	!	!	!
=54	=54	=54	=54	=54	=54	=54	=54	=54	=54	=54	=54	=54	=54	=54	=54	=54	=54	=54	=54	=54
.	.	.	.	.	.	.	.	.	.	.	.	.	.	8qqdd/	.	.	.	.	.	.
*	*	*	*	*	*	*	*	*	*	*	*ij	*	*	*	*	*	*	*	*	*
!	!	!	!	!	!	!	!	!LO:N:vis=1	!	!	!	!	!	!	!	!	!	!	!	!
8d\L	7_ 5n_	8d\L	.	2.a/	.	2.ccn\	.	2.r	.	8d\L	pa-	2.a\	.	2.ccn\	.	.	.	.	2.dd\	2.dd\
8e\	.	8e\	.	.	.	.	.	.	.	8e\	.	.	.	.	.	.	.	.	.	.
8f#\J	.	8f#\J	.	.	.	.	.	.	.	8f#\J	.	.	.	.	.	.	.	.	.	.
8d\L	.	8d\L	.	.	.	.	.	.	.	8d\L	.	.	.	.	.	.	.	.	.	.
8e\	.	8e\	.	.	.	.	.	.	.	8e\	.	.	.	.	.	.	.	.	.	.
8f#\J	x	8f#\J	.	.	.	.	.	.	.	8f#\J	.	.	.	.	.	.	.	.	.	.
=55	=55	=55	=55	=55	=55	=55	=55	=55	=55	=55	=55	=55	=55	=55	=55	=55	=55	=55	=55	=55
4.g\	.	4.g\	.	8g/L	.	8b\L	.	4r	.	4.g\	-cem	8g\L	.	8b\L	.	.	.	.	4.dd\	4.dd\
*	*	*	*	*	*	*	*	*	*	*	*Xij	*	*	*	*	*	*	*	*	*
.	.	.	.	8a/	.	8cc#\	.	.	.	.	.	8a\	.	8cc#\	.	.	.	.	.	.
.	.	.	.	8b/J	.	8dd\J	.	8r	.	.	.	8b\J	.	8dd\J	.	.	.	.	.	.
*clefF4	*	*	*	*	*	*	*	*	*	*	*	*	*	*	*	*	*	*	*	*
4.BB/	.	4.d\	.	4.d/	.	8g/L	.	4.BB/	da	8B\L	pa-	4.d\	.	8g\L	.	.	.	.	4r	4r
.	.	.	.	.	.	8a/	.	.	.	8c#X\	.	.	.	8a\	.	.	.	.	.	.
.	.	.	.	.	.	8b/J	.	.	.	8d\J	.	.	.	8b\J	.	.	.	.	8r	8r
=56	=56	=56	=56	=56	=56	=56	=56	=56	=56	=56	=56	=56	=56	=56	=56	=56	=56	=56	=56	=56
!	!	!	!	!LO:SIC:s=8cn:v	!	!	!	!	!	!LO:SIC:s=4.cn:v	!	!	!	!	!	!	!	!	!LO:TX:a:t=3	!LO:TX:a:t=3.
!	!	!	!	!	!	!	!	!	!	!	!	!	!	!	!	!	!	!	!LO:N:vis=0	!LO:N:vis=0
4.Cn/	6 5	4.e\	.	8c#/L	.	8a/L	.	4.Cn/	pa-	4.c#\	.	4.e\	.	8a\L	.	.	2.r	2.r	1.r	1.r
.	.	.	.	8d/	.	8b/	.	.	.	.	.	.	.	8b\	.	.	.	.	.	.
!	!	!	!	!	!	!LO:SIC:s=8ccn:v	!	!	!	!	!	!	!	!LO:SIC:s=8ccn	!	!	!	!	!	!
.	.	.	.	8e/J	.	8cc#/J	.	.	.	.	.	.	.	8cc#\J	.	.	.	.	.	.
!	!	!	!	!LO:LB:g=original	!	!	!	!	!	!	!	!	!	!LO:LB:g=original	!	!	!	!	!	!
4.D/	.	4.d\	.	8A/L	.	8f#/L	.	4.D/	.	(8A\L	.	4.d\	.	8f#/L	.	.	.	.	.	.
.	.	.	.	8B/	.	8g/	.	.	.	8B\	.	.	.	8g/	.	.	.	.	.	.
!	!	!	!	!LO:SIC:s=8cn:v	!	!	!	!	!	!LO:SIC:s=8cn:v	!	!	!	!	!	!	!	!	!	!
.	.	.	.	8c#/J	.	8a/J	.	.	.	8c#\J)	.	.	.	8a/J	.	.	.	.	.	.
=57	=57	=57	=57	=57	=57	=57	=57	=57	=57	=57	=57	=57	=57	=57	=57	=57	=57	=57	=57	=57
!	!	!LO:TX:a:t=P:problem=takt 57 dopisany innym tuszem	!	!	!	!	!	!	!	!	!	!	!	!LO:N:vis=4	!	!	!	!	!	!
8G\L	5_ 3_	4.d\yy	.	4.B/	.	4.g/	.	4.G\	-cem	4.B\	-cem	4.d\	-cem	4.g/	-cem	.	4.d/	4.dd\	.	.
8D\	.	.	.	.	.	.	.	.	.	.	.	.	.	.	.	.	.	.	.	.
8BB\J	.	.	.	.	.	.	.	.	.	.	.	.	.	.	.	.	.	.	.	.
8GG/L	.	4.d\yy	.	4.d/ 4.b 4.gg	.	4.d/ 4.b 4.gg	.	4r	.	4r	.	4r	.	4r	.	.	4.d/	4.dd\	.	.
8BB/	x	.	.	.	.	.	.	.	.	.	.	.	.	.	.	.	.	.	.	.
8D/J	.	.	.	.	.	.	.	8r	.	8r	.	8r	.	8r	.	.	.	.	.	.
!	!	!	!	!	!	!	!	!	!	!	!	!	!	!	!	!	!	!LO:LB:g=original	!	!
=58	=58	=58	=58	=58	=58	=58	=58	=58	=58	=58	=58	=58	=58	=58	=58	=58	=58	=58	=58	=58
!	!	!	!	!	!	!	!	!LO:N:vis=00	!	!LO:TX:a:t=1	!	!LO:TX:a:t=1	!	!LO:TX:a:t=1.	!	!	!	!	!	!LO:TX:b:t=Vertatur Cito
8G\L	.	4.d\	.	4.G/ 4.d 4.b 4.gg	.	4.d/ 4.b 4.gg	.	0.r	.	2.r	.	2.r	.	2.r	.	.	4.d/	4.dd\	2.r	2.r
8D\	.	.	.	.	.	.	.	.	.	.	.	.	.	.	.	.	.	.	.	.
8BB\J	.	.	.	.	.	.	.	.	.	.	.	.	.	.	.	.	.	.	.	.
4GG/	.	4r	.	4r	.	4r	.	.	.	.	.	.	.	.	.	.	4r	4.r	.	.
!	!	!LO:N:vis=4	!	!	!	!	!	!	!	!	!	!	!	!	!	!	!	!	!	!
8r	.	8r	.	8r	.	8r	.	.	.	.	.	.	.	.	.	.	8ryy	.	.	.
!	!	!	!	!	!	!	!	!	!	!LO:LB:g=original	!	!	!	!	!	!	!	!	!	!LO:PB:g=original
=59	=59	=59	=59	=59	=59	=59	=59	=59	=59	=59	=59	=59	=59	=59	=59	=59	=59	=59	=59	=59
*clefC3	*	*	*	*	*	*	*	*	*	*	*	*	*	*	*	*	*	*	*	*
!	!	!	!	!	!	!	!	!	!	!	!	!	!	!	!	!	!LO:N:vis=00	!LO:N:vis=00	!	!
8e\L	7_ #_	8e\L	.	2.b/	.	2.dd\	.	.	.	8e\L	pa-	2.b\	Da	2.dd\	Da	.	0.r	0.r	2.ee\	2.ee\
8f#\	.	8f#\	.	.	.	.	.	.	.	8f#\	.	.	.	.	.	.	.	.	.	.
8g#X\J	.	8g#X\J	.	.	.	.	.	.	.	8g#X\J	.	.	.	.	.	.	.	.	.	.
8e\L	x	8e\L	.	.	.	.	.	.	.	8e\L	.	.	.	.	.	.	.	.	.	.
8f#\	.	8f#\	.	.	.	.	.	.	.	8f#\	.	.	.	.	.	.	.	.	.	.
8g#\J	.	8g#\J	.	.	.	.	.	.	.	8g#\J	.	.	.	.	.	.	.	.	.	.
=60	=60	=60	=60	=60	=60	=60	=60	=60	=60	=60	=60	=60	=60	=60	=60	=60	=60	=60	=60	=60
!	!	!LO:N:vis=4	!	!	!	!	!	!	!	!	!	!	!	!	!	!	!	!	!	!
4.a\	.	4.a\	.	8a\L	.	8cc#X\L	.	.	.	4.a\	-cem	8a\L	pa-	8cc#X\L	Pa-	.	.	.	2.ee\	2.ee\
.	.	.	.	8b\	.	8dd\	.	.	.	.	.	8b\	.	8dd\	.	.	.	.	.	.
.	.	.	.	8cc#\J	.	8ee\J	.	.	.	.	.	8cc#\J	.	8ee\J	.	.	.	.	.	.
!	!	!LO:TX:a:t=P:problem=uszkodzony papier	!	!	!	!	!	!	!	!	!	!	!	!	!	!	!	!	!	!
4r	.	4ryy	.	8a\L	.	8cc#\L	.	.	.	4r	.	8a\L	.	8cc#\L	.	.	.	.	.	.
.	.	.	.	8b\	.	8dd\	.	.	.	.	.	8b\	.	8dd\	.	.	.	.	.	.
8r	.	8r	.	8cc#\J	.	8ee\J	.	.	.	8r	.	8cc#\J	.	8ee\J	.	.	.	.	.	.
=61	=61	=61	=61	=61	=61	=61	=61	=61	=61	=61	=61	=61	=61	=61	=61	=61	=61	=61	=61	=61
.	.	.	.	8qqcc#/	.	.	.	.	.	.	.	.	.	8qqee/	.	.	.	.	.	.
8e\L	7_ #_	8e\L	.	2.b\	.	2.dd\	.	.	.	8e\L	pa-	2.b\	.	2.dd\	.	.	.	.	2.ee\	2.ee\
8f#\	.	8f#\	.	.	.	.	.	.	.	8f#\	.	.	.	.	.	.	.	.	.	.
!	!	!LO:TX:a:t=♯	!	!	!	!	!	!	!	!	!	!	!	!	!	!	!	!	!	!
8g#X\J	.	8g#y\J	.	.	.	.	.	.	.	8g#X\J	.	.	.	.	.	.	.	.	.	.
8e\L	.	8e\L	.	.	.	.	.	.	.	8e\L	.	.	.	.	.	.	.	.	.	.
8f#\	x	8f#\	.	.	.	.	.	.	.	8f#\	.	.	.	.	.	.	.	.	.	.
8g#\J	.	8g#\J	.	.	.	.	.	.	.	8g#X\J	.	.	.	.	.	.	.	.	.	.
=62	=62	=62	=62	=62	=62	=62	=62	=62	=62	=62	=62	=62	=62	=62	=62	=62	=62	=62	=62	=62
4.a\	.	4.a\	.	8a\L	.	8cc#\L	.	4r	.	4.a\	-cem	8a\L	.	8cc#\L	.	.	.	.	4.ee\	4ee\
.	.	.	.	8b\	.	8dd\	.	.	.	.	.	8b\	.	8dd\	.	.	.	.	.	.
.	.	.	.	8cc#\J	.	8ee\J	.	8r	.	.	.	8cc#\J	.	8ee\J	.	.	.	.	.	4r
!LO:LB:g=original	!	!	!	!	!	!	!	!	!	!	!	!	!	!	!	!	!	!	!	!
*clefF4	*	*	*	*	*	*	*	*	*	*	*	*	*	*	*	*	*	*	*	*
4.C#X/	6	4.e\	.	4c#/	.	8a/L	.	4.C#X/	da	8c#\L	da	4.e\	.	8a\L	.	.	.	.	4r	.
.	.	.	.	.	.	8b/	.	.	.	8d\	.	.	.	8b\	.	.	.	.	.	4r
.	.	.	.	8r	.	8cc#/J	.	.	.	8e\J	.	.	.	8cc#\J	.	.	.	.	8r	.
!	!	!	!	!	!	!LO:LB:g=original	!	!	!	!	!	!	!	!	!	!	!	!	!	!
=63	=63	=63	=63	=63	=63	=63	=63	=63	=63	=63	=63	=63	=63	=63	=63	=63	=63	=63	=63	=63
!	!	!	!	!	!	!	!	!	!	!	!	!	!	!	!	!	!	!	!LO:TX:a:t=3	!LO:TX:a:t=3
!	!	!	!	!	!	!	!	!	!	!	!	!	!	!	!	!	!	!	!LO:N:vis=0	!LO:N:vis=0
4.D/	6 5	4.f#\	.	8d/L	.	8b\L	.	4.D\	pa-	4.d\	pa-	4.f#\	.	8b\L	.	.	2.r	2.r	1.r	1.r
.	.	.	.	8e/	.	8cc#\	.	.	.	.	.	.	.	8cc#\	.	.	.	.	.	.
.	.	.	.	8f#/J	.	8dd\J	.	.	.	.	.	.	.	8dd\J	.	.	.	.	.	.
4.E/	#	4.e\	.	8B/L	.	8g#X/L	.	4.E\	.	8B\L	.	4.e\	.	8g#X\L	.	.	.	.	.	.
.	.	.	.	8c#/	.	8a/	.	.	.	8c#\	.	.	.	8a\	.	.	.	.	.	.
.	.	.	.	8d/J	.	8b/J	.	.	.	8d\J	.	.	.	8b\J	.	.	.	.	.	.
=64	=64	=64	=64	=64	=64	=64	=64	=64	=64	=64	=64	=64	=64	=64	=64	=64	=64	=64	=64	=64
8A\L	.	4.e\	.	4.c#/	.	4.a/	.	4.A\	-cem	4.c#\	-cem	4.f#\	-cem	4.a\	-cem	.	4.ee\	4.ee\	.	.
8E\	.	.	.	.	.	.	.	.	.	.	.	.	.	.	.	.	.	.	.	.
8C#\J	.	.	.	.	.	.	.	.	.	.	.	.	.	.	.	.	.	.	.	.
8AA/L	.	4.e\	.	4.e/ 4.cc# 4.aa	.	4.A/ 4.e 4.cc# 4.aa	.	4r	.	4r	.	4r	.	4r	.	.	4.ee\	4.ee\	.	.
8C#/	.	.	.	.	.	.	.	.	.	.	.	.	.	.	.	.	.	.	.	.
8E/J	.	.	.	.	.	.	.	8r	.	8r	.	8r	.	8r	.	.	.	.	.	.
!	!	!	!	!	!	!	!	!	!	!	!	!LO:LB:g=original	!	!LO:LB:g=original	!	!	!	!	!	!
=65	=65	=65	=65	=65	=65	=65	=65	=65	=65	=65	=65	=65	=65	=65	=65	=65	=65	=65	=65	=65
!	!	!LO:N:vis=4	!	!	!	!	!	!	!	!LO:TX:a:t=4	!	!LO:TX:a:t=4	!	!LO:TX:a:t=4.	!	!	!	!	!	!
!	!	!	!	!	!	!	!	!LO:N:vis=00	!	!LO:N:vis=00	!	!LO:N:vis=00	!	!LO:N:vis=00	!	!	!	!	!	!
8A\L	.	4.e\	.	4.A/ 4.e 4.cc# 4.aa	.	4.A/ 4.e 4.cc# 4.aa	.	0.r	.	0.r	.	0.r	.	0.r	.	.	4.a/	4.ee\	2.r	2.r
8E\	.	.	.	.	.	.	.	.	.	.	.	.	.	.	.	.	.	.	.	.
8C#\J	.	.	.	.	.	.	.	.	.	.	.	.	.	.	.	.	.	.	.	.
4AA/	.	4r	.	4r	.	4r	.	.	.	.	.	.	.	.	.	.	4r	4.r	.	.
8r	.	8r	.	8r	.	8r	.	.	.	.	.	.	.	.	.	.	8ryy	.	.	.
=66	=66	=66	=66	=66	=66	=66	=66	=66	=66	=66	=66	=66	=66	=66	=66	=66	=66	=66	=66	=66
!LO:TX:a:t=3	!	!	!	!	!LO:DY:a:t=p&colon;	!	!	!	!	!	!	!	!	!	!	!	!	!LO:TX:a:t=3	!LO:TX:a:i:t=Solo	!LO:TX:a:i:t=Solo
!LO:N:vis=0	!	!LO:N:vis=0	!	!	!	!	!	!	!	!	!	!	!	!	!	!	!LO:N:vis=0	!LO:N:vis=0	!	!
1.r	.	1.r	.	8A/L	p	8A/L	.	.	.	.	.	.	.	.	.	.	1.r	1.r	2.ee\	2.gg\
.	.	.	.	8B/	.	8B/	.	.	.	.	.	.	.	.	.	.	.	.	.	.
.	.	.	.	8c#/J	.	8c#/J	.	.	.	.	.	.	.	.	.	.	.	.	.	.
.	.	.	.	8A/L	.	8A/L	.	.	.	.	.	.	.	.	.	.	.	.	.	.
.	.	.	.	8B/	.	8B/	.	.	.	.	.	.	.	.	.	.	.	.	.	.
.	.	.	.	8c#/J	.	8c#/J	.	.	.	.	.	.	.	.	.	.	.	.	.	.
=67	=67	=67	=67	=67	=67	=67	=67	=67	=67	=67	=67	=67	=67	=67	=67	=67	=67	=67	=67	=67
.	.	.	.	4.d/	.	4.d/	.	.	.	.	.	.	.	.	.	.	.	.	8dd\L	8ff#\L
.	.	.	.	.	.	.	.	.	.	.	.	.	.	.	.	.	.	.	8ee\	8gg\
.	.	.	.	.	.	.	.	.	.	.	.	.	.	.	.	.	.	.	8ff#\J	8aa\J
.	.	.	.	4r	.	4r	.	.	.	.	.	.	.	.	.	.	.	.	8dd\L	8ff#\L
.	.	.	.	.	.	.	.	.	.	.	.	.	.	.	.	.	.	.	8ee\	8gg\
.	.	.	.	8r	.	8r	.	.	.	.	.	.	.	.	.	.	.	.	8ff#\J	8aa\J
=68	=68	=68	=68	=68	=68	=68	=68	=68	=68	=68	=68	=68	=68	=68	=68	=68	=68	=68	=68	=68
!LO:N:vis=1	!	!LO:TX:a:t=P:problem=brak taktu nr 68	!	!	!	!	!	!	!	!	!	!	!	!	!	!	!	!	!	!
.	.	.	.	.	.	.	.	.	.	.	.	.	.	.	.	.	.	.	.	8qqaa/
2.r	.	2.ryy	.	8A/L	.	8A/L	.	.	.	.	.	.	.	.	.	.	2.r	2.r	2.ee\	2.gg\
.	.	.	.	8B/	.	8B/	.	.	.	.	.	.	.	.	.	.	.	.	.	.
.	.	.	.	8c#/J	.	8c#/J	.	.	.	.	.	.	.	.	.	.	.	.	.	.
!	!	!	!	!LO:LB:g=original	!	!	!	!	!	!	!	!	!	!	!	!	!	!	!	!
.	.	.	.	8A/L	.	8A/L	.	.	.	.	.	.	.	.	.	.	.	.	.	.
.	.	.	.	8B/	.	8B/	.	.	.	.	.	.	.	.	.	.	.	.	.	.
.	.	.	.	8c#/J	.	8c#/J	.	.	.	.	.	.	.	.	.	.	.	.	.	.
=69	=69	=69	=69	=69	=69	=69	=69	=69	=69	=69	=69	=69	=69	=69	=69	=69	=69	=69	=69	=69
*	*	*^	*	*	*	*	*	*	*	*	*	*	*	*	*	*	*	*	*	*
!	!	!	!	!	!	!	!	!	!	!	!	!	!	!	!	!	!	!	!LO:N:vis=4	!	!
4r	.	4r	4.ryy	.	4.d/	.	4.d/	.	4r	.	4r	.	4r	.	4r	.	.	4.r	4.r	8dd\L	4.ff#\
.	.	.	.	.	.	.	.	.	.	.	.	.	.	.	.	.	.	.	.	8ee\	.
8r	.	8r	.	.	.	.	.	.	8r	.	8r	.	8r	.	8r	.	.	.	.	8ff#\J	.
!	!	!	!	!	!	!LO:DY:a:t=f&colon;	!	!	!	!	!	!	!	!	!	!	!	!	!LO:N:vis=4.	!	!
4.d\	.	4.a/	4.f#\	.	8ff#\L	f	8ddd\L	.	4.d\	da	4.d\	Da	4.a\	pa-	4.ff#\	Da	.	4.dd\	4ff#\	8dd\L	4.ff#\
.	.	.	.	.	8ff#\	.	8ddd\	.	.	.	.	.	.	.	.	.	.	.	.	8ee\	.
!	!	!	!	!	!	!	!	!	!	!	!	!	!	!	!	!	!	!	!LO:N:vis=4	!	!
.	.	.	.	.	8ff#\J	.	8ddd\J	.	.	.	.	.	.	.	.	.	.	.	8ff#\	8ff#\J	.
!	!	!	!	!	!	!	!	!	!LO:LB:g=original	!	!	!	!	!	!	!	!	!	!	!LO:LB:g=original	!
=70	=70	=70	=70	=70	=70	=70	=70	=70	=70	=70	=70	=70	=70	=70	=70	=70	=70	=70	=70	=70	=70
*	*	*	*	*	*tremolo	*	*	*	*	*	*	*	*	*	*	*	*	*	*	*	*
4.A\	.	4.a/	4.e\	.	8ee\L	.	8ccc#\L	.	4.A\	pa-	4.c#\	pa-	4.a\	-cem	4.ee\	Pa-	.	4.a/	4.ee\	4.ee\	4.ee\
.	.	.	.	.	8ee\	.	8ccc#\	.	.	.	.	.	.	.	.	.	.	.	.	.	.
.	.	.	.	.	8ee\J	.	8ccc#\J	.	.	.	.	.	.	.	.	.	.	.	.	.	.
*	*	*	*	*	*	*	*	*	*	*	*	*	*	*ij	*	*	*	*	*	*	*
4.d\	.	4.a/	4.f#\	.	8ff#\L	.	8ddd\L	.	4.d\	-cem	4.d\	-cem	4.a\	pa-	4.ff#\	-cem	.	4.dd\	4.ff#\	4r	4r
.	.	.	.	.	8ff#\	.	8ddd\	.	.	.	.	.	.	.	.	.	.	.	.	.	.
.	.	.	.	.	8ff#\J	.	8ddd\J	.	.	.	.	.	.	.	.	.	.	.	.	8r	8r
=71	=71	=71	=71	=71	=71	=71	=71	=71	=71	=71	=71	=71	=71	=71	=71	=71	=71	=71	=71	=71	=71
!	!	!	!	!	!	!	!	!	!	!	!	!	!	!	!	!	!	!	!	!LO:TX:a:t=8	!LO:TX:a:t=1
!	!	!	!	!	!	!	!	!	!	!	!	!	!	!	!	!	!	!	!	!LO:N:vis=00	!
*	*	*	*	*	*	*	*	*	*	*	*	*ij	*	*	*	*	*	*	*	*	*
4.A\	.	4.a/	4.e\	.	8ee\L	.	8ccc#\L	.	4.A\	pa-	4.c#\	pa-	4.a\	-cem	4.ee\	Pa-	.	4.a/	4.ee\	0.r	2.r
*	*	*	*	*	*	*	*	*	*	*	*	*	*	*Xij	*	*	*	*	*	*	*
.	.	.	.	.	8ee\	.	8ccc#\	.	.	.	.	.	.	.	.	.	.	.	.	.	.
.	.	.	.	.	8ee\J	.	8ccc#\J	.	.	.	.	.	.	.	.	.	.	.	.	.	.
4.d\	.	4.a/	4.f#\	.	8ff#\L	.	8ddd\L	.	4.d\	.	4.d\	.	4.a\	pa-	4.ff#\	.	.	4.dd\	4.ff#\	.	.
.	.	.	.	.	8ff#\	.	8ddd\	.	.	.	.	.	.	.	.	.	.	.	.	.	.
.	.	.	.	.	8ff#\J	.	8ddd\J	.	.	.	.	.	.	.	.	.	.	.	.	.	.
*	*	*	*	*	*Xtremolo	*	*	*	*	*	*	*	*	*	*	*	*	*	*	*	*
!	!	!	!	!	!	!	!LO:LB:g=original	!	!	!	!	!	!	!	!	!	!	!	!	!	!
=72	=72	=72	=72	=72	=72	=72	=72	=72	=72	=72	=72	=72	=72	=72	=72	=72	=72	=72	=72	=72	=72
!	!	!	!	!	!	!	!	!	!LO:N:vis=4	!	!	!	!	!	!	!	!	!LO:N:vis=4	!	!	!
4.A\	.	4.a/	4.e\	.	4.ee\	.	4.ccc#\	.	4.A\	-cem	4.c#\	-cem	4.a\	-cem	4.ee\	-cem	.	4.a/	4.ee\	.	4r
*	*	*	*	*	*	*	*	*	*	*	*	*Xij	*	*	*	*	*	*	*	*	*
.	.	.	.	.	.	.	.	.	.	.	.	.	.	.	.	.	.	.	.	.	8r
*	*	*v	*v	*	*	*	*	*	*	*	*	*	*	*	*	*	*	*	*	*	*
4r	.	4r	.	4r	.	4r	.	4r	.	4r	.	4r	.	4r	.	.	4.r	4.r	.	4.a/
8r	.	8r	.	8r	.	8r	.	8r	.	8r	.	8r	.	8r	.	.	.	.	.	.
!	!	!LO:LB:g=original	!	!	!	!	!	!	!	!LO:LB:g=original	!	!	!	!	!	!	!	!	!	!
=73	=73	=73	=73	=73	=73	=73	=73	=73	=73	=73	=73	=73	=73	=73	=73	=73	=73	=7	=73	=73
!LO:TX:a:t=3	!	!LO:TX:a:t=6	!	!	!LO:DY:a:t=p&colon;	!	!LO:DY:a:t=p&colon;	!	!	!LO:TX:a:t=6	!	!LO:TX:a:t=3	!	!LO:TX:a:t=3.	!	!	!LO:N:vis=00	!LO:N:vis=00	!	!
!LO:N:vis=0	!	!LO:N:vis=00	!	!	!	!	!	!LO:N:vis=0	!	!LO:N:vis=00	!	!LO:N:vis=0	!	!LO:N:vis=0	!	!	!	!	!	!
1.r	.	0.r	.	4.g/	p	4.b\	p	1.r	.	0.r	.	1.r	.	1.r	.	.	0.r	0.r	.	8b\L
.	.	.	.	.	.	.	.	.	.	.	.	.	.	.	.	.	.	.	.	8cc#\
.	.	.	.	.	.	.	.	.	.	.	.	.	.	.	.	.	.	.	.	8dd\J
.	.	.	.	4.e/	.	4.gg\	.	.	.	.	.	.	.	.	.	.	.	.	.	8ee\L
.	.	.	.	.	.	.	.	.	.	.	.	.	.	.	.	.	.	.	.	8ff#\
.	.	.	.	.	.	.	.	.	.	.	.	.	.	.	.	.	.	.	.	8gg\J
!	!	!	!	!	!	!	!	!	!	!	!	!	!	!	!	!	!	!	!	!LO:LB:g=original
=74	=74	=74	=74	=74	=74	=74	=74	=74	=74	=74	=74	=74	=74	=74	=74	=74	=74	=74	=74	=74
.	.	.	.	4.f#/	.	4.a/	.	.	.	.	.	.	.	.	.	.	.	.	.	8a\L
.	.	.	.	.	.	.	.	.	.	.	.	.	.	.	.	.	.	.	.	8b\
.	.	.	.	.	.	.	.	.	.	.	.	.	.	.	.	.	.	.	.	8cc#\J
.	.	.	.	4.d/	.	4.ff#\	.	.	.	.	.	.	.	.	.	.	.	.	.	8dd\L
.	.	.	.	.	.	.	.	.	.	.	.	.	.	.	.	.	.	.	.	8ee\
.	.	.	.	.	.	.	.	.	.	.	.	.	.	.	.	.	.	.	.	8ff#\J
=75	=75	=75	=75	=75	=75	=75	=75	=75	=75	=75	=75	=75	=75	=75	=75	=75	=75	=75	=75	=75
!LO:N:vis=1	!	!	!	!	!	!	!	!	!	!	!	!	!	!	!	!	!	!	!LO:N:vis=00	!
2.r	.	.	.	4.e/	.	4.g/	.	2.r	.	.	.	2.r	.	2.r	.	.	.	.	0.r	8g/L
.	.	.	.	.	.	.	.	.	.	.	.	.	.	.	.	.	.	.	.	8a/
.	.	.	.	.	.	.	.	.	.	.	.	.	.	.	.	.	.	.	.	8b/J
.	.	.	.	4.c#/	.	4.ee\	.	.	.	.	.	.	.	.	.	.	.	.	.	8cc#\L
.	.	.	.	.	.	.	.	.	.	.	.	.	.	.	.	.	.	.	.	8dd\
.	.	.	.	.	.	.	.	.	.	.	.	.	.	.	.	.	.	.	.	8ee\J
=76	=76	=76	=76	=76	=76	=76	=76	=76	=76	=76	=76	=76	=76	=76	=76	=76	=76	=76	=76	=76
!	!	!	!	!	!	!	!	!	!	!	!	!	!	!	!	!	!	!	!	!LO:N:vis=4
4r	.	.	.	4.d/	.	4.dd\	.	4r	.	.	.	4r	.	4r	.	.	.	.	.	4.f#/
8r	.	.	.	.	.	.	.	8r	.	.	.	8r	.	8r	.	.	.	.	.	.
!LO:TX:b:t=pedal	!	!	!	!LO:SIC:s=4.f#:v	!	!	!	!	!	!	!	!	!	!	!	!	!	!	!	!
4.D\	.	.	.	4.fn/	.	4.dd\	.	4.D\	da	.	.	4.d\	Do-	4.f#/	Da	.	.	.	.	4r
.	.	.	.	.	.	.	.	.	.	.	.	.	.	.	.	.	.	.	.	8r
=77	=77	=77	=77	=77	=77	=77	=77	=77	=77	=77	=77	=77	=77	=77	=77	=77	=77	=77	=77	=77
!	!	!	!	!	!	!	!	!	!	!LO:N:vis=0	!	!	!	!	!	!	!	!	!	!LO:TX:a:t=2
!	!	!LO:N:vis=0	!	!	!	!	!	!	!	!	!	!	!	!	!	!	!LO:N:vis=0	!LO:N:vis=0	!	!LO:N:vis=0
4.A\	.	1.r	.	4.e/	.	4.cc#\	.	4.A\	pa-	1.r	.	4.c#X\	-na	4.e/	Pa-	.	1.r	1.r	.	1.r
4.G#X\	.	.	.	4.f#/	.	4.dd\	.	4.G#X\	.	.	.	4.d\	no-	4.f#/	-cem	.	.	.	.	.
!LO:LB:g=original	!	!	!	!	!	!	!	!	!	!	!	!	!	!	!	!	!	!	!	!
=78	=78	=78	=78	=78	=78	=78	=78	=78	=78	=78	=78	=78	=78	=78	=78	=78	=78	=78	=78	=78
!LO:TX:a:t=T&colon;	!	!	!	!	!	!	!	!	!	!	!	!	!	!	!	!	!	!	!	!
4.A\	.	.	.	4.e/	.	4.cc#\	.	4.A\	-cem	.	.	4.c#\	-bis	4.e/	Pa-	.	.	.	.	.
4.G#X\	.	.	.	4.f#/	.	4.dd\	.	4.G#X\	pa-	.	.	4.d\	pa-	4.f#/	.	.	.	.	.	.
=79	=79	=79	=79	=79	=79	=79	=79	=79	=79	=79	=79	=79	=79	=79	=79	=79	=79	=79	=79	=79
!	!	!	!	!	!	!	!	!	!	!	!	!	!	!	!	!LO:DY:t=for	!	!	!	!
4.A\	.	4r	.	4.e/	.	4.cc#\	.	4.A\	-cem	4r	.	4.c#\	-cem	4.e/	-cem	f	4.r	4r	4r	4r
.	.	8r	.	.	.	.	.	.	.	8r	.	.	.	.	.	.	.	8ryy	8r	8r
*	*	*^	*	*	*	*	*	*	*	*	*	*	*	*	*	*	*	*	*	*
!	!	!	!	!	!	!LO:DY:a:t=f&colon;	!	!	!	!	!	!	!	!	!	!	!	!	!	!	!
*	*	*	*	*	*	*	*	*	*	*ij	*	*	*	*	*	*	*	*	*	*	*
4.d\	.	4.a/	4.f#\	.	8ff#\L	f	8ddd\L	.	4.d\	pa-	4.d\	Do-	4.a\	pa-	4.ff#\	Da	.	4.dd\	4.ff#\	4.ff#\	4.ddd\
.	.	.	.	.	8ff#\	.	8ddd\	.	.	.	.	.	.	.	.	.	.	.	.	.	.
.	.	.	.	.	8ff#\J	.	8ddd\J	.	.	.	.	.	.	.	.	.	.	.	.	.	.
!	!	!	!	!	!	!	!	!	!	!	!	!	!	!	!LO:LB:g=original	!	!	!	!	!	!
=80	=80	=80	=80	=80	=80	=80	=80	=80	=80	=80	=80	=80	=80	=80	=80	=80	=80	=80	=80	=80	=80
!	!	!LO:TX:a:t=Rep	!	!	!	!	!	!	!	!	!	!	!	!	!	!	!	!	!	!	!
!	!	!LO:TX:a:t=P:problem= t. 80 ujęty w repetycję	!	!	!	!	!	!	!	!	!	!	!	!	!	!	!	!	!	!	!
4.A\	.	4.a/	4.e\	.	4.ee\	.	8ccc#\L	.	4.A\	-cem	4.c#\	-na	4.a\	-cem	(4.ee\	Pa-	.	4.a/	4.ee\	4.ee\	4.ccc#\
.	.	.	.	.	.	.	8ccc#\	.	.	.	.	.	.	.	.	.	.	.	.	.	.
.	.	.	.	.	.	.	8ccc#\J	.	.	.	.	.	.	.	.	.	.	.	.	.	.
4.d\	.	4.a/	4.f#\	.	4.ff#\	.	8ddd\L	.	4.d\	pa-	4.d\	no-	4.a\	pa-	4.ff#\)	.	.	4.dd\	4.ff#\	4.ff#\	4.ddd\
.	.	.	.	.	.	.	8ddd\	.	.	.	.	.	.	.	.	.	.	.	.	.	.
.	.	.	.	.	.	.	8ddd\J	.	.	.	.	.	.	.	.	.	.	.	.	.	.
!	!	!	!	!	!	!	!	!	!	!	!	!	!LO:LB:g=original	!	!	!	!	!LO:LB:g=original	!	!	!
=81	=81	=81	=81	=81	=81	=81	=81	=81	=81	=81	=81	=81	=81	=81	=81	=81	=81	=81	=81	=81	=81
!	!	!LO:TX:a:t=P:problem= t. 81 zapisany repetycją	!	!	!	!	!	!	!	!	!	!	!	!	!	!	!	!	!	!	!
4.A\	.	4.a/yy	4.e\yy	.	4.ee\	.	8ccc#\L	.	4.A\	-cem	4.c#\	-bis	4.a\	-cem	4.ee\	-cem	.	4.a/	4.ee\	4.ee\	4.ccc#\
*	*	*	*	*	*	*	*	*	*	*Xij	*	*	*	*	*	*	*	*	*	*	*
.	.	.	.	.	.	.	8ccc#\	.	.	.	.	.	.	.	.	.	.	.	.	.	.
.	.	.	.	.	.	.	8ccc#\J	.	.	.	.	.	.	.	.	.	.	.	.	.	.
!	!	!	!	!	!	!	!	!	!	!	!	!	!	!	!	!	!	!	!LO:TX:a:t=P:problem=wykreśony 1 takt	!	!
4.d\	.	4.a/yy	4.f#\yy	.	4.ff#\	.	8ddd\L	.	4.d\	da	4.d\	Pa-	4.a\	da	4.ff#\	Pa-	.	4.dd\	4.ff#\	4.ff#\	4.ddd\
.	.	.	.	.	.	.	8ddd\	.	.	.	.	.	.	.	.	.	.	.	.	.	.
.	.	.	.	.	.	.	8ddd\J	.	.	.	.	.	.	.	.	.	.	.	.	.	.
!	!	!	!	!	!	!	!	!	!LO:LB:g=original	!	!	!	!	!	!	!	!	!	!LO:LB:g=original	!	!
=82	=82	=82	=82	=82	=82	=82	=82	=82	=82	=82	=82	=82	=82	=82	=82	=82	=82	=82	=82	=82	=82
4.A\	.	4.a/	4.e\	.	4.ee\	.	4.ccc#\	.	4.A\	pa-	4.c#\	-cem	4.a\	pa-	4.ee\	-cem	.	4.a/	4.ee\	4.ee\	4.ccc#\
!	!	!	!	!	!LO:LB:g=original	!	!	!	!LO:SIC:s=4.F#:v	!	!	!	!	!	!	!	!	!	!	!	!
4.F#\	.	4.ryy	4.f#\	.	4.a/	.	4.aa\	.	4.D\	-cem	4.c#\	da	4.a\	-cem	4.aa\	Da	.	4.r	4r	4.a/	4.aa\
.	.	.	.	.	.	.	.	.	.	.	.	.	.	.	.	.	.	.	8ryy	.	.
*	*	*v	*v	*	*	*	*	*	*	*	*	*	*	*	*	*	*	*	*	*	*
!	!	!	!	!	!	!LO:LB:g=original	!	!	!	!	!	!	!	!	!	!	!	!	!	!
=83	=83	=83	=83	=83	=83	=83	=83	=83	=83	=83	=83	=83	=83	=83	=83	=83	=83	=83	=83	=83
!	!	!	!	!	!	!	!	!	!	!	!	!	!	!	!	!	!	!LO:TX:a:t=2	!	!
!	!	!	!	!	!	!	!	!	!	!	!	!	!	!	!	!	!LO:N:vis=0	!LO:N:vis=0	!	!
8G\L	9	8g\L	.	2.b/	.	4.aa\	.	8G\L	pa-	4.d\	pa-	2.b\	no-	4.aa\	Pa-	.	1.r	1.r	2.b/	4.aa\
8A\	.	8a\	.	.	.	.	.	8A\	.	.	.	.	.	.	.	.	.	.	.	.
8B\J	.	8b\J	.	.	.	.	.	8B\J	.	.	.	.	.	.	.	.	.	.	.	.
8E\L	8	8e\L	.	.	.	4.gg\	.	8E\L	.	4.e\	-cem	.	.	4.gg\	.	.	.	.	.	4.gg\
8F#\	.	8f#\	.	.	.	.	.	8F#\	.	.	.	.	.	.	.	.	.	.	.	.
8G\J	.	8g\J	.	.	.	.	.	8G\J	.	.	.	.	.	.	.	.	.	.	.	.
=84	=84	=84	=84	=84	=84	=84	=84	=84	=84	=84	=84	=84	=84	=84	=84	=84	=84	=84	=84	=84
8F#\L	9	8f#\L	.	2.a/	.	4.gg\	.	8F#\L	.	4.c#\	Do-	2.a\	-bis	4.gg\	.	.	.	.	2.a/	4.gg\
8G\	.	8g\	.	.	.	.	.	8G\	.	.	.	.	.	.	.	.	.	.	.	.
8A\J	.	8a\J	.	.	.	.	.	8A\J	.	.	.	.	.	.	.	.	.	.	.	.
8D\L	8	8d\L	.	.	.	4.ff#\	.	8D\L	.	4.d\	-na	.	.	4.ff#\	.	.	.	.	.	4.ff#\
8E\	.	8e\	.	.	.	.	.	8E\	.	.	.	.	.	.	.	.	.	.	.	.
8F#\J	.	8f#\J	.	.	.	.	.	8F#\J	.	.	.	.	.	.	.	.	.	.	.	.
=85	=85	=85	=85	=85	=85	=85	=85	=85	=85	=85	=85	=85	=85	=85	=85	=85	=85	=85	=85	=85
8E\L	9	8e\L	.	2.g/	.	4.ff#\	.	8E\L	.	4.B\	no-	2.g\	pa-	4.ff#\	.	.	4.r	4.r	2.g/	4.ff#\
8F#\	.	8f#\	.	.	.	.	.	8F#\	.	.	.	.	.	.	.	.	.	.	.	.
8G\J	.	8g\J	.	.	.	.	.	8G\J	.	.	.	.	.	.	.	.	.	.	.	.
8C#\L	8	8c#\L	.	.	.	4.ee\	.	8C#/L	.	4.c#\	-bis	.	.	4.ee\	.	.	4.ee\	4.gg\	.	4.ee\
8D\	.	8d\	.	.	.	.	.	8D/	.	.	.	.	.	.	.	.	.	.	.	.
8E\J	.	8e\J	.	.	.	.	.	8E/J	.	.	.	.	.	.	.	.	.	.	.	.
!	!	!	!	!	!	!	!	!	!	!	!	!	!	!	!	!	!	!	!	!LO:LB:g=original
=86	=86	=86	=86	=86	=86	=86	=86	=86	=86	=86	=86	=86	=86	=86	=86	=86	=86	=86	=86	=86
!	!	!	!	!	!	!	!	!	!	!	!	!	!	!	!	!	!LO:SIC:s=4.dd:v	!	!	!
4.D\	9	4.d\	.	8f#/L	.	8ee\L	.	4.D\	-cem	4.A\	Pa-	2.f#\	.	4.ee\	.	.	4.dd\	4.ff#\	2.f#/	4.ee\
.	.	.	.	8f#/	.	8dd\	.	.	.	.	.	.	.	.	.	.	.	.	.	.
.	.	.	.	8f#/J	.	8dd\J	.	.	.	.	.	.	.	.	.	.	.	.	.	.
!LO:SIC:s=4.B:v	!	!	!	!	!	!	!	!	!	!	!	!	!	!	!	!	!	!	!	!
4.A\	8	4.b\	.	8f#/L	.	8dd\L	.	4.B\	da	4.B\	-cem	.	.	4.dd\	.	.	4.dd\	4.ff#\	.	4.dd\
.	.	.	.	8f#/	.	8dd\	.	.	.	.	.	.	.	.	.	.	.	.	.	.
.	.	.	.	8f#/J	.	8dd\J	.	.	.	.	.	.	.	.	.	.	.	.	.	.
=87	=87	=87	=87	=87	=87	=87	=87	=87	=87	=87	=87	=87	=87	=87	=87	=87	=87	=87	=87	=87
!	!	!	!	!	!	!	!	!	!	!	!	!	!	!	!	!	!LO:SIC:s=4.a:v	!	!	!
*	*	*	*	*tremolo	*	*	*	*	*	*	*ij	*	*	*	*	*	*	*	*	*
4.G\	6 5	4.b\	.	8e/L	.	8dd\L	.	4.G\	pa-	(4.B\	Pa-	2.e\	.	4.dd\	.	.	4.a/	4.ee\	2.e/	4.dd\
.	.	.	.	8e/	.	8dd\	.	.	.	.	.	.	.	.	.	.	.	.	.	.
.	.	.	.	8e/	.	8dd\J	.	.	.	.	.	.	.	.	.	.	.	.	.	.
4.A\	.	4.a\	.	8e/	.	8cc#\L	.	4.A\	.	4.A\)	.	.	.	4.cc#\	.	.	4.a/	4.ee\	.	4.cc#\
.	.	.	.	8e/	.	8cc#\	.	.	.	.	.	.	.	.	.	.	.	.	.	.
.	.	.	.	8e/J	.	8cc#\J	.	.	.	.	.	.	.	.	.	.	.	.	.	.
*	*	*	*	*Xtremolo	*	*	*	*	*	*	*	*	*	*	*	*	*	*	*	*
*	*	*	*	*Xtremolo	*	*	*	*	*	*	*	*	*	*	*	*	*	*	*	*
=88	=88	=88	=88	=88	=88	=88	=88	=88	=88	=88	=88	=88	=88	=88	=88	=88	=88	=88	=88	=88
!	!	!LO:N:vis=4	!	!	!	!	!	!	!	!	!	!	!	!	!	!	!	!	!	!
4.D\	.	4.a\	.	4.f#/	.	4.dd\	.	4.D\	-cem	4.A\	-cem	4.f#\	-cem	4.dd\	-cem	.	4.f#/	4.dd\	4.f#/	4.dd\
*	*	*	*	*	*	*	*	*	*	*	*Xij	*	*	*	*	*	*	*	*	*
4r	.	4r	.	4r	.	4r	.	4r	.	4r	.	4r	.	4r	.	.	4r	4r	4r	4r
!	!	!	!	!	!	!	!	!	!	!	!	!	!	!LO:TX:a:t=P:problem=uszkodzony papier	!	!	!	!	!	!
8r	.	8r	.	8r	.	8r	.	8r	.	8r	.	8r	.	8ryy	.	.	8ryy	8ryy	8r	8r
!LO:LB:g=original	!	!	!	!	!	!	!	!	!	!LO:LB:g=original	!	!	!	!LO:LB:g=original	!	!	!	!	!	!
=89	=89	=89	=89	=89	=89	=89	=89	=89	=89	=89	=89	=89	=89	=89	=89	=89	=89	=89	=89	=89
!LO:TX:a:t=2	!	!	!	!	!LO:DY:a:t=p&colon;	!	!LO:DY:a:t=p&colon;	!	!	!LO:TX:a:t=2	!	!LO:TX:a:t=2	!	!LO:TX:a:t=2.	!	!	!LO:N:vis=0	!LO:N:vis=0	!	!
!LO:N:vis=0	!	!LO:N:vis=0	!	!	!	!	!	!LO:N:vis=0	!	!LO:N:vis=0	!	!LO:N:vis=0	!	!LO:N:vis=0	!	!	!	!	!	!
1.r	.	1.r	.	8gg'\L	p	8bb'\L	p	1.r	.	1.r	.	1.r	.	1.r	.	.	1.r	1.r	4.ee\	4.gg\
.	.	.	.	8ff#'\	.	8aa'\	.	.	.	.	.	.	.	.	.	.	.	.	.	.
.	.	.	.	8ee'\J	.	8gg'\J	.	.	.	.	.	.	.	.	.	.	.	.	.	.
.	.	.	.	8dd'\L	.	8ff#'\L	.	.	.	.	.	.	.	.	.	.	.	.	4r	4r
.	.	.	.	8cc#'\	.	8ee'\	.	.	.	.	.	.	.	.	.	.	.	.	.	.
.	.	.	.	8b'\J	.	8dd'\J	.	.	.	.	.	.	.	.	.	.	.	.	8r	8r
=90	=90	=90	=90	=90	=90	=90	=90	=90	=90	=90	=90	=90	=90	=90	=90	=90	=90	=90	=90	=90
!	!	!	!	!	!	!	!	!	!	!	!	!	!	!	!	!	!	!	!LO:TX:a:t=1	!LO:TX:a:t=1
.	.	.	.	8a'/L	.	8cc#'\L	.	.	.	.	.	.	.	.	.	.	.	.	2.r	2.r
.	.	.	.	8g'/	.	8b'\	.	.	.	.	.	.	.	.	.	.	.	.	.	.
.	.	.	.	8f#'/J	.	8a'\J	.	.	.	.	.	.	.	.	.	.	.	.	.	.
.	.	.	.	8e'/L	.	8g'/L	.	.	.	.	.	.	.	.	.	.	.	.	.	.
.	.	.	.	8d'/	.	8f#'/	.	.	.	.	.	.	.	.	.	.	.	.	.	.
.	.	.	.	8c#'/J	.	8e'/J	.	.	.	.	.	.	.	.	.	.	.	.	.	.
!	!	!	!	!	!	!	!	!LO:LB:g=original	!	!	!	!	!	!	!	!	!	!	!	!
=91	=91	=91	=91	=91	=91	=91	=91	=91	=91	=91	=91	=91	=91	=91	=91	=91	=91	=91	=91	=91
!	!	!	!	!	!LO:DY:a:t=f&colon;	!LO:TX:a:t=P:problem=mixed beam	!LO:DY:a:t=f&colon;	!	!	!	!	!	!	!	!	!	!	!	!	!
4r	.	4r	.	8d/L	f	8f#/L	f	4r	.	4r	.	4r	.	4r	.	.	4.r	4.r	4r	4r
.	.	.	.	8f#/	.	8dd\	.	.	.	.	.	.	.	.	.	.	.	.	.	.
8r	.	8r	.	8f#/J	.	8dd\J	.	8r	.	8r	.	8r	.	8r	.	.	.	.	8r	8r
!LO:TX:b:i:t=pleno	!	!	!	!	!	!	!	!	!	!LO:SIC:s=4.B:v	!	!	!	!	!	!	!	!	!	!
4.B\	3	4.b\	.	8f#/L	.	8dd\L	.	4.B\	da	4.A\	Da	4.f#\	Da	4.dd\	Da	.	4.dd\	4.ff#\	4.f#/	4.dd\
.	.	.	.	8f#/	.	8dd\	.	.	.	.	.	.	.	.	.	.	.	.	.	.
.	.	.	.	8f#/J	.	8dd\J	.	.	.	.	.	.	.	.	.	.	.	.	.	.
=92	=92	=92	=92	=92	=92	=92	=92	=92	=92	=92	=92	=92	=92	=92	=92	=92	=92	=92	=92	=92
!	!	!	!	!	!	!	!	!	!	!	!	!	!	!	!	!	!LO:SIC:s=4.a:v	!	!	!
4.G\	6 5	4.g\	.	8e/L	.	8dd\L	.	4.G\	pa-	2.A\	pa-	2.e\	pa-	(4.dd\	Pa-	.	4.a/	4.ee\	2.e/	4.dd\
.	.	.	.	8e/	.	8dd\	.	.	.	.	.	.	.	.	.	.	.	.	.	.
.	.	.	.	8e/J	.	8dd\J	.	.	.	.	.	.	.	.	.	.	.	.	.	.
!	!	!	!	!	!	!LO:LB:g=original	!	!	!	!	!	!	!	!	!	!	!	!	!	!
4.A\	.	4.a\	.	8e/L	.	8cc#\L	.	4.A\	.	.	.	.	.	4.cc#\)	.	.	4.a/	4.ee\	.	4.cc#\
.	.	.	.	8e/	.	8cc#\	.	.	.	.	.	.	.	.	.	.	.	.	.	.
.	.	.	.	8e/J	.	8cc#\J	.	.	.	.	.	.	.	.	.	.	.	.	.	.
!	!	!	!	!	!	!	!	!	!	!	!	!LO:LB:g=original	!	!	!	!	!	!	!	!
=93	=93	=93	=93	=93	=93	=93	=93	=93	=93	=93	=93	=93	=93	=93	=93	=93	=93	=93	=93	=93
!	!	!	!	!LO:TX:a:t=P:problem=mixed beam	!	!	!	!	!	!	!	!	!	!	!	!	!	!	!	!
4.D\	.	4.a\	.	8d/L	.	8dd\L	.	4.D\	-cem	4.A\	-cem	4.f#\	-cem	4.dd\	-cem	.	4.f#/ 4.a	4.dd\	4.f#/	4.dd\
.	.	.	.	8dd\	.	8ff#\	.	.	.	.	.	.	.	.	.	.	.	.	.	.
.	.	.	.	8dd\J	.	8ff#\J	.	.	.	.	.	.	.	.	.	.	.	.	.	.
*	*	*	*	*	*	*	*	*	*ij	*	*ij	*	*	*	*	*	*	*	*	*
4.d\	.	4.a\	.	8dd\L	.	8ff#\L	.	4.d\	da	4.d\	Da	4.a\	da	4.ff#\	Da	.	4.dd\	4.ff#\	4.dd\	4.ff#\
.	.	.	.	8dd\	.	8ff#\	.	.	.	.	.	.	.	.	.	.	.	.	.	.
.	.	.	.	8dd\J	.	8ff#\J	.	.	.	.	.	.	.	.	.	.	.	.	.	.
!	!	!	!	!LO:LB:g=original	!	!	!	!	!	!	!	!	!	!	!	!	!	!	!	!
=94	=94	=94	=94	=94	=94	=94	=94	=94	=94	=94	=94	=94	=94	=94	=94	=94	=94	=94	=94	=94
!	!	!	!	!	!	!	!	!	!	!	!	!	!	!	!	!	!LO:SIC:s=4.a:v	!	!	!
4.G\	.	4.b\	.	8dd\L	.	8ee\L	.	4.G\	pa-	(4.d\	pa-	2.a\	pa-	2.ee\	Pa-	.	4.a/	4.ee\	4.dd\	2.ee\
.	.	.	.	8dd\	.	8ee\	.	.	.	.	.	.	.	.	.	.	.	.	.	.
.	.	.	.	8dd\J	.	8ee\J	.	.	.	.	.	.	.	.	.	.	.	.	.	.
4.A\	.	4.a\	.	8cc#\L	.	8ee\L	.	4.A\	.	4.c#\)	.	.	.	.	.	.	4.a/	4.ee\	4.cc#\	.
.	.	.	.	8cc#\	.	8ee\	.	.	.	.	.	.	.	.	.	.	.	.	.	.
.	.	.	.	8cc#\J	.	8ee\J	.	.	.	.	.	.	.	.	.	.	.	.	.	.
=95	=95	=95	=95	=95	=95	=95	=95	=95	=95	=95	=95	=95	=95	=95	=95	=95	=95	=95	=95	=95
*	*	*^	*	*	*	*	*	*	*	*	*	*	*	*	*	*	*	*	*	*
4.D\	.	4.a/	4.r	.	4.dd\	.	4.d/ 4.a 4.ff#	.	4.D\	-cem	4.d\	-cem	4.a\	-cem	4.ff#\	-cem	.	4.dd\	4.ff#\	4.dd\	4.ff#\
*	*	*	*	*	*	*	*	*	*	*Xij	*	*Xij	*	*	*	*	*	*	*	*	*
!	!	!LO:SIC:n=2:s=4.f#:v	!	!	!	!	!	!	!	!	!	!	!	!	!	!	!	!	!	!	!
4.D\	.	4.a/	4.e\	.	4.d/ 4.a 4.ff#	.	4.d/ 4.dd 4.ddd	.	4.d\	pa-	4.d\	pa-	4.a\	pa-	4.ff#\	Pa-	.	4.dd\	4.ff#\	4.dd\	4.ff#\
=96	=96	=96	=96	=96	=96	=96	=96	=96	=96	=96	=96	=96	=96	=96	=96	=96	=96	=96	=96	=96	=96
4.D\	.	4.a/	4.f#\	.	4.d/ 4.a 4.ff#	.	4.d/ 4.dd 4.ddd	.	4.D\	-cem	4.d\	-cem	4.a\	-cem	4.ff#\	-cem:	.	4.dd\	4.ff#\	4.dd\	4.ff#\
4r	.	4r	4ryy	.	4r	.	4r	.	4r	.	4r	.	4r	.	4r	.	.	4.r	4.r	4r	4r
8r	.	8r	8ryy	.	8r	.	8r	.	8r	.	8r	.	8r	.	8r	.	.	.	.	8r	8r
!LO:TX:b:i:t=Revisum	!	!	!	!	!LO:TX:b:i:t=Finis Coronat Opus	!	!LO:TX:b:i:t=Revisum	!	!	!	!LO:TX:b:t=Finis	!	!LO:TX:b:t=Finis	!	!LO:TX:b:t=Ad Majorem D&colon; G&colon; B&colon; V&colon; M&colon; H&colon; Et Om(n)iu(m) Scto\nAMEN.	!	!	!	!	!	!LO:TX:b:t=O&colon; Ad&colon; M&colon; D&colon; Gl&colon; et P&colon; H&colon; B&colon; M&colon; Virgine.
*	*	*v	*v	*	*	*	*	*	*	*	*	*	*	*	*	*	*	*	*	*	*
!LO:TX:b:i:t=Fine	!	!	!	!	!	!LO:TX:b:i:t=Finis Coronat Opus.	!	!	!	!	!	!	!	!	!	!	!	!	!	!
!LO:TX:b:i:t=P&colon; H&colon; Bſimam V&colon; M&colon; ſ&colon; C&colon; D&colon; J&colon; P&colon;	!	!	!	!	!	!LO:TX:b:i:t=P&colon; H&colon; Bſimam V&colon; M&colon; ſ&colon; C&colon; D&colon; J&colon; P&colon;	!	!	!	!	!	!	!	!	!	!	!	!	!	!
==;;	==	==	==	==;;	==	==;;	==	==	==	==	==	==	==	==	==	==	==	==;;	==	==
*-	*-	*-	*-	*-	*-	*-	*-	*-	*-	*-	*-	*-	*-	*-	*-	*-	*-	*-	*-	*-
!!!system-decoration: [(g1)][(g2)][(g3)][(g4)][(g5)]
!!!ENC: Anna Matuszewska
!!!END: 2020-12-17
!!!ENC: Andrzej Borzym
!!!END: 2020-06-23
!!!YEC: Copyright 2022 Narodowy Instytut Fryderyka Chopina (https://polishscores.org)
!!!YEM: License CC-BY-4.0 (https://creativecommons.org/licenses/by/4.0)
